wxx7777/EmbodiScope/data/demo_pick_place.csv
timestamp,episode_id,phase,joint_1,joint_2,joint_3,joint_4,joint_5,joint_6,ee_x,ee_y,ee_z,camera_motion,force_z,gripper,object_distance,success
0.000000,EP-001,approach,0.116280,0.209057,0.246167,0.229948,0.154086,0.039139,0.231176,-0.165489,0.484395,-0.000803,1.683355,1.000000,0.160000,True
0.020000,EP-001,approach,0.116278,0.208319,0.249410,0.228343,0.151462,0.039062,0.232331,-0.165441,0.484449,0.057427,2.233280,1.000000,0.160000,True
0.040000,EP-001,approach,0.116090,0.207082,0.247909,0.228313,0.151308,0.035074,0.233267,-0.164697,0.484627,0.059952,2.134866,1.000000,0.160000,True
0.060000,EP-001,approach,0.115015,0.210699,0.248980,0.227969,0.146795,0.037880,0.233963,-0.164261,0.484593,0.041699,2.550715,1.000000,0.160000,True
0.080000,EP-001,approach,0.117483,0.209583,0.248339,0.227801,0.146939,0.033625,0.234949,-0.164063,0.485087,0.056364,2.722387,1.000000,0.160000,True
0.100000,EP-001,approach,0.119332,0.211688,0.250616,0.226548,0.141822,0.033239,0.235865,-0.163151,0.484812,0.067083,2.412837,1.000000,0.160000,True
0.120000,EP-001,approach,0.121617,0.210307,0.250493,0.224173,0.144474,0.028261,0.236975,-0.162651,0.484855,0.061451,2.389190,1.000000,0.160000,True
0.140000,EP-001,approach,0.120733,0.212333,0.247023,0.223729,0.144468,0.028826,0.237819,-0.162644,0.484940,0.043036,2.398542,1.000000,0.160000,True
0.160000,EP-001,approach,0.123917,0.209955,0.249152,0.223497,0.141553,0.026353,0.238870,-0.161805,0.484950,0.067308,2.296069,1.000000,0.160000,True
0.180000,EP-001,approach,0.123429,0.213605,0.248301,0.221977,0.144051,0.026271,0.239402,-0.161629,0.484858,0.029304,2.112641,1.000000,0.160000,True
0.200000,EP-001,approach,0.123061,0.211353,0.246787,0.221071,0.137678,0.024349,0.240825,-0.161243,0.485198,0.076128,1.570462,1.000000,0.160000,True
0.220000,EP-001,approach,0.120943,0.214514,0.249726,0.223451,0.137253,0.018823,0.241473,-0.160581,0.485342,0.047221,2.574757,1.000000,0.160000,True
0.240000,EP-001,approach,0.124320,0.211027,0.248522,0.220657,0.134975,0.021254,0.242475,-0.160370,0.485202,0.050038,2.553477,1.000000,0.160000,True
0.260000,EP-001,approach,0.124792,0.215367,0.249381,0.221988,0.134194,0.015530,0.243222,-0.159962,0.485462,0.044050,2.423264,1.000000,0.160000,True
0.280000,EP-001,approach,0.127741,0.217148,0.252407,0.217253,0.132827,0.018032,0.244039,-0.159398,0.485395,0.049075,2.479448,1.000000,0.160000,True
0.300000,EP-001,approach,0.129404,0.217369,0.250639,0.217559,0.129909,0.014185,0.245002,-0.159057,0.485617,0.050435,2.749413,1.000000,0.160000,True
0.320000,EP-001,approach,0.131922,0.219020,0.250252,0.216186,0.129221,0.010714,0.245874,-0.158751,0.485746,0.047988,2.761944,1.000000,0.160000,True
0.340000,EP-001,approach,0.130746,0.216149,0.247920,0.215457,0.132271,0.011822,0.246518,-0.158739,0.485844,0.034045,2.581599,1.000000,0.160000,True
0.360000,EP-001,approach,0.129950,0.220709,0.246688,0.214804,0.127420,0.009068,0.247302,-0.158419,0.485922,0.043657,2.482130,1.000000,0.160000,True
0.380000,EP-001,approach,0.136134,0.221318,0.250265,0.214238,0.127727,0.005770,0.248184,-0.157678,0.485871,0.058192,2.752834,1.000000,0.160000,True
0.400000,EP-001,approach,0.133985,0.217612,0.247847,0.212954,0.123029,0.004402,0.248683,-0.157661,0.486148,0.030048,2.836261,1.000000,0.160000,True
0.420000,EP-001,approach,0.134031,0.218763,0.248275,0.215452,0.123297,0.004485,0.249295,-0.157185,0.486076,0.037261,3.266820,1.000000,0.160000,True
0.440000,EP-001,approach,0.134936,0.219632,0.247538,0.212938,0.122813,-0.000039,0.250265,-0.157064,0.486260,0.051041,2.396607,1.000000,0.160000,True
0.460000,EP-001,approach,0.134199,0.220984,0.248141,0.209981,0.120295,-0.001017,0.250764,-0.156637,0.486393,0.031449,2.825551,1.000000,0.160000,True
0.480000,EP-001,approach,0.138075,0.221815,0.251486,0.209422,0.118322,0.001325,0.251208,-0.156519,0.486363,0.023208,2.454046,1.000000,0.160000,True
0.500000,EP-001,approach,0.138570,0.218304,0.247265,0.210478,0.117335,-0.004356,0.251979,-0.155811,0.486338,0.052457,2.600164,1.000000,0.160000,True
0.520000,EP-001,approach,0.141276,0.223440,0.247174,0.209309,0.116183,-0.004381,0.252607,-0.155948,0.486659,0.036491,3.428254,1.000000,0.160000,True
0.540000,EP-001,approach,0.141425,0.222647,0.247754,0.206714,0.115902,-0.005999,0.253047,-0.155565,0.486546,0.030376,2.657534,1.000000,0.160000,True
0.560000,EP-001,approach,0.141948,0.221976,0.247719,0.208107,0.114974,-0.006959,0.253522,-0.155337,0.486670,0.027754,2.762702,1.000000,0.160000,True
0.580000,EP-001,approach,0.143401,0.225433,0.245320,0.203710,0.109724,-0.008810,0.254241,-0.154901,0.486742,0.041504,2.654403,1.000000,0.160000,True
0.600000,EP-001,approach,0.141950,0.223942,0.244280,0.204233,0.107132,-0.015660,0.254830,-0.155079,0.487074,0.034288,3.088748,1.000000,0.160000,True
0.620000,EP-001,approach,0.142569,0.226646,0.245886,0.206589,0.108414,-0.014315,0.255090,-0.154667,0.487053,0.023557,2.740423,1.000000,0.160000,True
0.640000,EP-001,approach,0.144012,0.226187,0.246246,0.199233,0.107207,-0.013524,0.255412,-0.154500,0.486904,0.019746,2.402009,1.000000,0.160000,True
0.660000,EP-001,approach,0.143065,0.225341,0.245178,0.201874,0.106765,-0.018216,0.255950,-0.154208,0.487364,0.037946,2.939921,1.000000,0.160000,True
0.680000,EP-001,approach,0.145562,0.228039,0.244642,0.202709,0.105781,-0.015997,0.256336,-0.154046,0.487628,0.023182,3.154960,1.000000,0.160000,True
0.700000,EP-001,approach,0.146119,0.227915,0.244510,0.200083,0.101688,-0.020078,0.256490,-0.154027,0.487701,0.009496,2.927460,1.000000,0.160000,True
0.720000,EP-001,approach,0.148447,0.226353,0.245097,0.198188,0.104237,-0.024000,0.256891,-0.153773,0.487523,0.024215,2.996351,1.000000,0.160000,True
0.740000,EP-001,approach,0.148248,0.225093,0.245268,0.197067,0.100029,-0.023014,0.257209,-0.153727,0.487708,0.018053,2.766516,1.000000,0.160000,True
0.760000,EP-001,approach,0.146227,0.227113,0.242749,0.194332,0.095490,-0.022637,0.257234,-0.153474,0.487869,0.014302,2.712118,1.000000,0.160000,True
0.780000,EP-001,approach,0.149950,0.229273,0.244114,0.194479,0.098031,-0.028277,0.257325,-0.153443,0.488025,0.008411,2.997459,1.000000,0.160000,True
0.800000,EP-001,approach,0.152837,0.228371,0.245204,0.195565,0.095485,-0.028119,0.257650,-0.153420,0.488034,0.016878,2.683117,1.000000,0.160000,True
0.820000,EP-001,approach,0.148763,0.231784,0.244208,0.193632,0.093968,-0.031983,0.257755,-0.153231,0.488011,0.010208,2.895150,1.000000,0.160000,True
0.840000,EP-001,approach,0.151174,0.229885,0.242070,0.193462,0.089633,-0.033218,0.257974,-0.153087,0.488347,0.019839,2.749290,1.000000,0.160000,True
0.860000,EP-001,approach,0.153130,0.230153,0.243281,0.192255,0.090016,-0.033846,0.257677,-0.152726,0.488445,0.023186,2.977244,1.000000,0.160000,True
0.880000,EP-001,approach,0.151901,0.230828,0.243485,0.191889,0.089166,-0.034922,0.257802,-0.153075,0.488328,0.018364,3.283843,1.000000,0.160000,True
0.900000,EP-001,approach,0.153846,0.229234,0.244356,0.187981,0.087156,-0.036837,0.257779,-0.152899,0.488562,0.013103,3.054731,1.000000,0.160000,True
0.920000,EP-001,approach,0.155528,0.230728,0.240443,0.188963,0.086864,-0.038719,0.257621,-0.152679,0.488757,0.017631,3.399500,1.000000,0.160000,True
0.940000,EP-001,approach,0.154233,0.230248,0.243580,0.187884,0.086165,-0.037070,0.257848,-0.153173,0.488845,0.028681,3.186298,1.000000,0.160000,True
0.960000,EP-001,approach,0.157415,0.228024,0.241522,0.186883,0.085014,-0.043995,0.257830,-0.153094,0.489030,0.008635,3.050629,1.000000,0.160000,True
0.980000,EP-001,approach,0.158344,0.229205,0.242174,0.184979,0.083054,-0.046823,0.257537,-0.152990,0.489185,0.018959,2.833532,1.000000,0.160000,True
1.000000,EP-001,approach,0.156577,0.233321,0.242538,0.181987,0.079412,-0.044819,0.257727,-0.152817,0.489279,0.015518,3.128895,1.000000,0.160000,True
1.020000,EP-001,approach,0.159264,0.231837,0.239844,0.185117,0.080638,-0.047025,0.257490,-0.152430,0.489325,0.021414,2.769592,1.000000,0.160000,True
1.040000,EP-001,approach,0.161580,0.232618,0.239567,0.184320,0.076905,-0.051115,0.257286,-0.152741,0.489303,0.019039,3.325525,1.000000,0.160000,True
1.060000,EP-001,approach,0.160428,0.230854,0.240223,0.185555,0.076228,-0.047978,0.257055,-0.152629,0.489666,0.021933,2.723585,1.000000,0.160000,True
1.080000,EP-001,approach,0.162071,0.232477,0.241090,0.182036,0.073027,-0.053267,0.256921,-0.152861,0.489888,0.018252,2.711820,1.000000,0.160000,True
1.100000,EP-001,approach,0.163101,0.234821,0.238787,0.182301,0.069744,-0.055959,0.256341,-0.153221,0.490086,0.032609,2.867254,1.000000,0.160000,True
1.120000,EP-001,approach,0.162496,0.234045,0.237075,0.179649,0.066874,-0.054811,0.256377,-0.153229,0.489976,0.006466,2.631805,1.000000,0.160000,True
1.140000,EP-001,approach,0.165028,0.233366,0.237733,0.177097,0.068964,-0.056089,0.256102,-0.152765,0.490106,0.027350,3.143206,1.000000,0.160000,True
1.160000,EP-001,approach,0.164831,0.236710,0.238923,0.177287,0.066106,-0.055104,0.255458,-0.152932,0.490416,0.037171,2.888833,1.000000,0.160000,True
1.180000,EP-001,approach,0.163459,0.234541,0.239650,0.173701,0.065534,-0.062579,0.255472,-0.153201,0.490548,0.015873,2.976206,1.000000,0.160000,True
1.200000,EP-001,reach,0.166416,0.234330,0.236709,0.174671,0.065303,-0.063778,0.255066,-0.152889,0.490550,0.023212,3.283923,1.000000,0.160000,True
1.220000,EP-001,reach,0.167610,0.236810,0.236528,0.173018,0.060116,-0.063853,0.254892,-0.153343,0.490728,0.025819,2.466499,1.000000,0.160000,True
1.240000,EP-001,reach,0.168193,0.232666,0.236283,0.170477,0.058191,-0.065679,0.254370,-0.153001,0.490686,0.031266,3.025969,1.000000,0.160000,True
1.260000,EP-001,reach,0.166687,0.236326,0.235879,0.172715,0.059630,-0.066701,0.254086,-0.153015,0.490983,0.021170,3.193998,1.000000,0.160000,True
1.280000,EP-001,reach,0.169002,0.234000,0.234184,0.171412,0.058208,-0.069227,0.253784,-0.153413,0.490949,0.026122,3.378831,1.000000,0.160000,True
1.300000,EP-001,reach,0.171025,0.234679,0.234452,0.169282,0.055678,-0.072070,0.253240,-0.153531,0.491167,0.030660,3.116143,1.000000,0.160000,True
1.320000,EP-001,reach,0.169958,0.235014,0.234938,0.168645,0.053722,-0.071943,0.253095,-0.153308,0.491306,0.014244,2.877140,1.000000,0.160000,True
1.340000,EP-001,reach,0.172028,0.236411,0.234264,0.168711,0.050550,-0.071740,0.252621,-0.153669,0.491400,0.030906,3.329675,1.000000,0.160000,True
1.360000,EP-001,reach,0.172835,0.236538,0.233629,0.164894,0.051214,-0.073155,0.252340,-0.153447,0.491339,0.017396,3.317990,1.000000,0.160000,True
1.380000,EP-001,reach,0.171455,0.236985,0.231569,0.161903,0.048653,-0.076872,0.251817,-0.153828,0.491630,0.036194,3.677910,1.000000,0.160000,True
1.400000,EP-001,reach,0.173119,0.236984,0.231721,0.161310,0.048822,-0.076588,0.251690,-0.153599,0.491905,0.018799,3.648749,1.000000,0.160000,True
1.420000,EP-001,reach,0.172303,0.238921,0.230936,0.162568,0.048008,-0.078291,0.251253,-0.153777,0.491993,0.023845,2.958616,1.000000,0.160000,True
1.440000,EP-001,reach,0.174945,0.239482,0.233024,0.160675,0.044183,-0.081169,0.250775,-0.153927,0.492088,0.025611,3.399495,1.000000,0.160000,True
1.460000,EP-001,reach,0.173804,0.238115,0.233069,0.156921,0.044050,-0.082453,0.250542,-0.154065,0.492320,0.016238,3.052013,1.000000,0.160000,True
1.480000,EP-001,reach,0.173704,0.238294,0.230842,0.159882,0.042123,-0.083344,0.250290,-0.153961,0.492485,0.015572,2.684303,1.000000,0.160000,True
1.500000,EP-001,reach,0.175073,0.236681,0.232139,0.157022,0.041308,-0.080666,0.250034,-0.154345,0.492636,0.023078,3.165142,1.000000,0.160000,True
1.520000,EP-001,reach,0.175577,0.235675,0.228737,0.157879,0.040967,-0.086122,0.249204,-0.154163,0.492568,0.043533,3.322186,1.000000,0.160000,True
1.540000,EP-001,reach,0.176827,0.238313,0.228152,0.155933,0.038083,-0.089184,0.249260,-0.154239,0.492797,0.013630,2.253501,1.000000,0.160000,True
1.560000,EP-001,reach,0.177511,0.237545,0.226048,0.152376,0.036576,-0.089538,0.248899,-0.154131,0.492881,0.017844,3.295128,1.000000,0.160000,True
1.580000,EP-001,reach,0.175619,0.238850,0.227720,0.151926,0.035120,-0.091590,0.248533,-0.154469,0.492942,0.022851,2.655493,1.000000,0.160000,True
1.600000,EP-001,reach,0.176934,0.234849,0.226081,0.149448,0.031718,-0.090463,0.248132,-0.154068,0.492991,0.028742,3.337880,1.000000,0.160000,True
1.620000,EP-001,reach,0.178988,0.241702,0.226272,0.148042,0.030763,-0.096891,0.248225,-0.154409,0.493280,0.022270,2.923848,1.000000,0.160000,True
1.640000,EP-001,reach,0.179700,0.235768,0.226227,0.147593,0.029708,-0.096699,0.247622,-0.154565,0.493305,0.030241,2.879083,1.000000,0.160000,True
1.660000,EP-001,reach,0.179630,0.237770,0.224497,0.147520,0.029462,-0.095199,0.247693,-0.154211,0.493783,0.032244,3.216681,1.000000,0.160000,True
1.680000,EP-001,reach,0.183967,0.239234,0.222533,0.147546,0.027966,-0.097227,0.247622,-0.154187,0.493625,0.008318,2.697876,1.000000,0.160000,True
1.700000,EP-001,reach,0.182203,0.235653,0.223481,0.142915,0.027848,-0.099213,0.247031,-0.154475,0.493718,0.032164,3.373002,1.000000,0.160000,True
1.720000,EP-001,reach,0.180911,0.236909,0.222772,0.144008,0.021256,-0.099552,0.247096,-0.154582,0.493802,0.007246,2.472277,1.000000,0.160000,True
1.740000,EP-001,reach,0.182611,0.234683,0.222245,0.141744,0.021248,-0.104031,0.246842,-0.154439,0.494175,0.023942,2.552592,1.000000,0.160000,True
1.760000,EP-001,reach,0.184010,0.235556,0.222524,0.140074,0.017161,-0.102833,0.247001,-0.154529,0.493932,0.016747,2.388937,1.000000,0.160000,True
1.780000,EP-001,reach,0.183028,0.234762,0.220506,0.140790,0.017363,-0.106471,0.247147,-0.154447,0.494117,0.012758,2.831828,1.000000,0.160000,True
1.800000,EP-001,reach,0.180330,0.237812,0.219726,0.137289,0.014143,-0.108036,0.247209,-0.154130,0.494129,0.014886,2.631230,1.000000,0.160000,True
1.820000,EP-001,reach,0.183555,0.238054,0.221994,0.138567,0.016766,-0.106673,0.246657,-0.154258,0.494285,0.028895,2.855922,1.000000,0.160000,True
1.840000,EP-001,reach,0.183938,0.237076,0.220294,0.134718,0.014585,-0.109965,0.246889,-0.154238,0.494369,0.014213,2.914971,1.000000,0.160000,True
1.860000,EP-001,reach,0.187506,0.239401,0.217834,0.132532,0.010292,-0.110615,0.247167,-0.154138,0.494572,0.016129,2.802052,1.000000,0.160000,True
1.880000,EP-001,reach,0.181987,0.239518,0.215845,0.133731,0.010832,-0.110431,0.247419,-0.154117,0.494329,0.017474,2.856751,1.000000,0.160000,True
1.900000,EP-001,reach,0.187491,0.237326,0.215829,0.129102,0.009871,-0.114259,0.247402,-0.153888,0.494548,0.017036,2.832514,1.000000,0.160000,True
1.920000,EP-001,reach,0.185358,0.236912,0.216308,0.128183,0.009804,-0.113037,0.247421,-0.153776,0.494788,0.013546,2.466326,1.000000,0.160000,True
1.940000,EP-001,reach,0.187401,0.236730,0.216235,0.128342,0.006892,-0.111830,0.247809,-0.153843,0.494567,0.022340,2.249960,1.000000,0.160000,True
1.960000,EP-001,reach,0.185969,0.236351,0.217793,0.127291,0.004289,-0.116801,0.248031,-0.153638,0.494633,0.014609,2.151253,1.000000,0.160000,True
1.980000,EP-001,reach,0.187066,0.238890,0.213075,0.125550,0.002412,-0.116297,0.248312,-0.153143,0.494564,0.028808,2.619272,1.000000,0.160000,True
2.000000,EP-001,reach,0.188887,0.237147,0.212884,0.121668,0.001933,-0.117824,0.248582,-0.153279,0.494361,0.018676,2.222215,1.000000,0.160000,True
2.020000,EP-001,reach,0.187694,0.236148,0.211337,0.121273,-0.000094,-0.122146,0.249139,-0.153192,0.494658,0.032083,2.066244,1.000000,0.160000,True
2.040000,EP-001,reach,0.189518,0.236159,0.211186,0.122676,-0.002805,-0.123517,0.249557,-0.152664,0.494795,0.035413,2.073670,1.000000,0.160000,True
2.060000,EP-001,reach,0.188176,0.237171,0.209689,0.121362,-0.005452,-0.122647,0.249968,-0.152760,0.494568,0.024160,2.222140,1.000000,0.160000,True
2.080000,EP-001,reach,0.188035,0.235578,0.207853,0.117696,-0.003597,-0.127085,0.250462,-0.152701,0.494361,0.028222,2.320391,1.000000,0.160000,True
2.100000,EP-001,reach,0.188665,0.236480,0.210134,0.118235,-0.007781,-0.124969,0.250857,-0.152194,0.494560,0.033803,2.150893,1.000000,0.160000,True
2.120000,EP-001,reach,0.188573,0.235766,0.207973,0.116779,-0.008641,-0.125816,0.251574,-0.152172,0.494468,0.037062,1.897191,1.000000,0.160000,True
2.140000,EP-001,reach,0.189474,0.237673,0.208850,0.116617,-0.008575,-0.126659,0.252467,-0.151836,0.494495,0.047410,2.316900,1.000000,0.160000,True
2.160000,EP-001,reach,0.192014,0.237174,0.205345,0.112636,-0.011376,-0.127838,0.252939,-0.151419,0.494385,0.033709,1.489125,1.000000,0.160000,True
2.180000,EP-001,reach,0.188524,0.233069,0.205625,0.114524,-0.011124,-0.127635,0.253476,-0.151176,0.494128,0.033403,2.005324,1.000000,0.160000,True
2.200000,EP-001,reach,0.188088,0.234745,0.205345,0.110517,-0.016006,-0.131288,0.254659,-0.150943,0.494076,0.061027,2.364759,1.000000,0.160000,True
2.220000,EP-001,reach,0.190842,0.235830,0.200709,0.111737,-0.014712,-0.129847,0.255347,-0.150564,0.493662,0.043412,2.111151,1.000000,0.160000,True
2.240000,EP-001,reach,0.193679,0.233835,0.200655,0.109575,-0.019341,-0.132191,0.256435,-0.150205,0.493843,0.058177,2.344850,1.000000,0.160000,True
2.260000,EP-001,reach,0.192995,0.235487,0.202838,0.105297,-0.021107,-0.133284,0.257021,-0.149557,0.493544,0.043233,2.001751,1.000000,0.160000,True
2.280000,EP-001,reach,0.193673,0.234509,0.200976,0.104946,-0.021926,-0.135396,0.257877,-0.149437,0.493445,0.043139,2.106728,1.000000,0.160000,True
2.300000,EP-001,reach,0.193820,0.234627,0.197197,0.104436,-0.021695,-0.134772,0.258704,-0.148993,0.493214,0.048546,1.921529,1.000000,0.160000,True
2.320000,EP-001,reach,0.191097,0.233357,0.197912,0.104123,-0.024374,-0.138416,0.260137,-0.148160,0.492802,0.084500,1.754546,1.000000,0.160000,True
2.340000,EP-001,reach,0.192605,0.233622,0.196527,0.099137,-0.026916,-0.137210,0.261380,-0.148087,0.492546,0.063744,1.955388,1.000000,0.160000,True
2.360000,EP-001,reach,0.188664,0.233654,0.196441,0.099048,-0.024554,-0.137642,0.261968,-0.147300,0.492164,0.053384,2.094509,1.000000,0.160000,True
2.380000,EP-001,reach,0.191959,0.230333,0.198510,0.099310,-0.029263,-0.141365,0.263129,-0.146826,0.491702,0.068677,1.219080,1.000000,0.160000,True
2.400000,EP-001,reach,0.193994,0.230853,0.194424,0.097680,-0.029475,-0.142793,0.264489,-0.146526,0.491590,0.069899,1.519850,1.000000,0.160000,True
2.420000,EP-001,reach,0.190947,0.230370,0.197327,0.093980,-0.030400,-0.143484,0.265487,-0.146175,0.491255,0.053892,1.120410,1.000000,0.160000,True
2.440000,EP-001,reach,0.190382,0.234112,0.192989,0.092787,-0.032957,-0.143369,0.266819,-0.145334,0.490710,0.081012,1.422923,1.000000,0.160000,True
2.460000,EP-001,reach,0.191707,0.231681,0.191306,0.093344,-0.033172,-0.143716,0.268091,-0.144720,0.490502,0.071230,1.291761,1.000000,0.160000,True
2.480000,EP-001,reach,0.194156,0.231429,0.193740,0.089748,-0.034249,-0.143883,0.269492,-0.144075,0.489978,0.082353,1.491763,1.000000,0.160000,True
2.500000,EP-001,reach,0.195743,0.230762,0.191839,0.090194,-0.036779,-0.143267,0.270980,-0.143588,0.489540,0.082445,1.514615,1.000000,0.160000,True
2.520000,EP-001,reach,0.198027,0.229342,0.191488,0.089782,-0.036525,-0.144598,0.272206,-0.142776,0.488884,0.080590,1.844723,1.000000,0.160000,True
2.540000,EP-001,reach,0.196438,0.228613,0.191328,0.087004,-0.040404,-0.147552,0.273758,-0.142086,0.488225,0.090474,1.894622,1.000000,0.160000,True
2.560000,EP-001,reach,0.192154,0.230625,0.189017,0.081541,-0.042540,-0.149447,0.275007,-0.141771,0.487959,0.065042,1.281574,1.000000,0.160000,True
2.580000,EP-001,reach,0.191073,0.228374,0.188240,0.085856,-0.042090,-0.151567,0.276598,-0.140696,0.487337,0.100803,1.342245,1.000000,0.160000,True
2.600000,EP-001,reach,0.194896,0.230908,0.182859,0.084381,-0.045267,-0.149347,0.277735,-0.140161,0.486615,0.072568,1.635187,1.000000,0.160000,True
2.620000,EP-001,reach,0.196368,0.228395,0.183157,0.083334,-0.044683,-0.150662,0.279373,-0.139529,0.485909,0.095217,1.244570,1.000000,0.160000,True
2.640000,EP-001,reach,0.192449,0.227803,0.183999,0.081055,-0.046815,-0.152707,0.281270,-0.138729,0.485224,0.108645,1.286135,1.000000,0.160000,True
2.660000,EP-001,reach,0.194181,0.226890,0.182604,0.075811,-0.048774,-0.153354,0.282648,-0.137617,0.484504,0.097594,0.845291,1.000000,0.160000,True
2.680000,EP-001,reach,0.194369,0.226656,0.182318,0.078989,-0.048618,-0.154087,0.284432,-0.136948,0.483687,0.103824,1.559393,1.000000,0.160000,True
2.700000,EP-001,reach,0.195164,0.226356,0.179487,0.075936,-0.050083,-0.158615,0.286057,-0.136541,0.482699,0.097750,1.400336,1.000000,0.160000,True
2.720000,EP-001,reach,0.194903,0.228127,0.180776,0.075370,-0.056695,-0.155564,0.287825,-0.135418,0.482190,0.108841,1.025383,1.000000,0.160000,True
2.740000,EP-001,reach,0.195997,0.228872,0.181048,0.072274,-0.054141,-0.155745,0.289418,-0.134590,0.481035,0.107722,0.897611,1.000000,0.160000,True
2.760000,EP-001,reach,0.196850,0.223115,0.177844,0.070689,-0.054839,-0.157176,0.291137,-0.133714,0.480256,0.103379,0.948404,1.000000,0.160000,True
2.780000,EP-001,reach,0.195401,0.224739,0.177131,0.069240,-0.055693,-0.159336,0.292671,-0.132865,0.479303,0.098207,1.355949,1.000000,0.160000,True
2.800000,EP-001,reach,0.196439,0.224910,0.175548,0.070515,-0.058607,-0.158369,0.294302,-0.132088,0.478377,0.100221,1.069278,1.000000,0.160000,True
2.820000,EP-001,reach,0.198314,0.221959,0.175072,0.067078,-0.060870,-0.158414,0.296029,-0.130802,0.477120,0.125051,0.836811,1.000000,0.160000,True
2.840000,EP-001,reach,0.193791,0.221835,0.172904,0.064900,-0.060328,-0.157096,0.297809,-0.130116,0.476387,0.102800,1.071988,1.000000,0.160000,True
2.860000,EP-001,reach,0.193743,0.221558,0.170723,0.061824,-0.060848,-0.158895,0.299467,-0.129057,0.475210,0.114980,1.391467,1.000000,0.160000,True
2.880000,EP-001,reach,0.196059,0.218069,0.170638,0.062972,-0.066281,-0.160261,0.301317,-0.128099,0.474075,0.119434,1.484919,1.000000,0.160000,True
2.900000,EP-001,reach,0.198044,0.222117,0.169375,0.060818,-0.066788,-0.161883,0.303155,-0.127108,0.472946,0.120007,1.492643,1.000000,0.160000,True
2.920000,EP-001,reach,0.195476,0.220497,0.165810,0.059563,-0.066753,-0.164464,0.304982,-0.125861,0.471471,0.132220,1.128422,1.000000,0.160000,True
2.940000,EP-001,reach,0.196816,0.219847,0.167277,0.059333,-0.071065,-0.163756,0.306673,-0.124870,0.469924,0.127427,1.150326,1.000000,0.160000,True
2.960000,EP-001,reach,0.194655,0.219521,0.165816,0.057467,-0.069409,-0.165717,0.308218,-0.123968,0.469034,0.102581,1.144335,1.000000,0.160000,True
2.980000,EP-001,reach,0.196422,0.219174,0.164925,0.054917,-0.068599,-0.164377,0.310279,-0.122932,0.467807,0.131450,1.236092,1.000000,0.160000,True
3.000000,EP-001,reach,0.194028,0.221676,0.162636,0.053760,-0.072718,-0.163168,0.312107,-0.121767,0.466406,0.128891,1.199374,1.000000,0.160000,True
3.020000,EP-001,reach,0.195891,0.217844,0.162990,0.052096,-0.072218,-0.163745,0.314017,-0.120443,0.464781,0.142096,0.740696,1.000000,0.160000,True
3.040000,EP-001,reach,0.195373,0.218199,0.162020,0.051556,-0.075039,-0.164495,0.315720,-0.119445,0.463375,0.119763,0.791965,1.000000,0.160000,True
3.060000,EP-001,reach,0.195263,0.215521,0.158857,0.050039,-0.074363,-0.166357,0.317310,-0.118289,0.461924,0.122223,0.879133,1.000000,0.160000,True
3.080000,EP-001,reach,0.196618,0.216188,0.159190,0.047738,-0.075297,-0.165385,0.319066,-0.117220,0.460140,0.135319,1.179098,1.000000,0.160000,True
3.100000,EP-001,reach,0.196026,0.214526,0.158666,0.044768,-0.075587,-0.167792,0.321236,-0.116041,0.458707,0.142684,0.819791,1.000000,0.160000,True
3.120000,EP-001,reach,0.193387,0.214108,0.157403,0.045830,-0.078681,-0.170824,0.322799,-0.114789,0.457106,0.127933,0.735213,1.000000,0.160000,True
3.140000,EP-001,reach,0.195465,0.212296,0.153717,0.044433,-0.078472,-0.168096,0.324702,-0.113903,0.455734,0.127492,1.236941,1.000000,0.160000,True
3.160000,EP-001,reach,0.191430,0.211741,0.152341,0.040006,-0.080688,-0.168686,0.326477,-0.112176,0.453793,0.156459,1.353318,1.000000,0.160000,True
3.180000,EP-001,reach,0.195293,0.212962,0.152665,0.040703,-0.083230,-0.171814,0.327752,-0.111316,0.452355,0.105650,0.668484,1.000000,0.160000,True
3.200000,EP-001,reach,0.197756,0.212693,0.149837,0.038062,-0.081546,-0.170380,0.329636,-0.110051,0.450431,0.148374,0.881078,1.000000,0.160000,True
3.220000,EP-001,reach,0.194239,0.211549,0.153854,0.033889,-0.085864,-0.173682,0.331336,-0.108521,0.448462,0.152523,1.243707,1.000000,0.160000,True
3.240000,EP-001,reach,0.194006,0.209120,0.147690,0.035606,-0.085928,-0.171064,0.333024,-0.107434,0.447134,0.121475,0.793822,1.000000,0.160000,True
3.260000,EP-001,reach,0.193131,0.209874,0.146454,0.035609,-0.083727,-0.168860,0.334677,-0.106195,0.444928,0.149595,1.165602,1.000000,0.160000,True
3.280000,EP-001,reach,0.194066,0.204837,0.147327,0.031612,-0.087282,-0.172022,0.336264,-0.105013,0.443270,0.128115,0.494200,1.000000,0.160000,True
3.300000,EP-001,reach,0.191913,0.209322,0.144401,0.030165,-0.090998,-0.169371,0.337879,-0.103875,0.441527,0.132030,0.833015,1.000000,0.160000,True
3.320000,EP-001,reach,0.193358,0.207082,0.140343,0.031261,-0.090507,-0.171331,0.339226,-0.102318,0.439362,0.148777,1.081060,1.000000,0.160000,True
3.340000,EP-001,reach,0.191695,0.206776,0.142318,0.026605,-0.092946,-0.173096,0.341004,-0.100864,0.437362,0.152802,1.329287,1.000000,0.160000,True
3.360000,EP-001,reach,0.191207,0.207341,0.139781,0.025359,-0.093498,-0.174946,0.342473,-0.099867,0.435699,0.121755,1.162642,1.000000,0.160000,True
3.380000,EP-001,reach,0.191761,0.204163,0.139171,0.024807,-0.096686,-0.171368,0.344138,-0.098208,0.433629,0.155534,0.428422,1.000000,0.160000,True
3.400000,EP-001,reach,0.191205,0.205442,0.136250,0.024731,-0.095255,-0.171741,0.345560,-0.097255,0.431506,0.136085,0.453490,1.000000,0.160000,True
3.420000,EP-001,reach,0.188402,0.202528,0.135994,0.023255,-0.099040,-0.175239,0.347210,-0.095863,0.429543,0.146412,0.645538,1.000000,0.160000,True
3.440000,EP-001,reach,0.193820,0.203191,0.135775,0.020045,-0.097295,-0.173833,0.348703,-0.094338,0.427634,0.143117,1.132931,1.000000,0.160000,True
3.460000,EP-001,reach,0.190605,0.200932,0.134582,0.018890,-0.098409,-0.171704,0.350065,-0.093069,0.425797,0.130943,1.108001,1.000000,0.160000,True
3.480000,EP-001,reach,0.187530,0.201166,0.131718,0.018004,-0.098814,-0.174699,0.351479,-0.091615,0.423641,0.148402,1.214311,1.000000,0.160000,True
3.500000,EP-001,reach,0.191359,0.202046,0.130974,0.015808,-0.097850,-0.173126,0.352833,-0.090476,0.421744,0.129608,1.106707,1.000000,0.160000,True
3.520000,EP-001,reach,0.189358,0.198028,0.129435,0.013616,-0.104752,-0.176835,0.354113,-0.089160,0.419854,0.133143,0.751940,1.000000,0.160000,True
3.540000,EP-001,reach,0.189356,0.197224,0.129562,0.011794,-0.105147,-0.175402,0.355491,-0.087923,0.417799,0.137070,0.814536,1.000000,0.160000,True
3.560000,EP-001,reach,0.189749,0.196778,0.127785,0.013015,-0.105929,-0.173009,0.356750,-0.086458,0.415814,0.138985,0.675757,1.000000,0.160000,True
3.580000,EP-001,reach,0.186974,0.196840,0.124802,0.010143,-0.106352,-0.176005,0.358164,-0.085070,0.413792,0.141087,1.176283,1.000000,0.160000,True
3.600000,EP-001,reach,0.183519,0.199633,0.126246,0.013276,-0.105245,-0.176477,0.359364,-0.083752,0.411463,0.147067,0.587987,1.000000,0.160000,True
3.620000,EP-001,reach,0.187394,0.193725,0.122896,0.008451,-0.108114,-0.176464,0.360678,-0.082120,0.409827,0.133810,0.976286,1.000000,0.160000,True
3.640000,EP-001,reach,0.187506,0.190614,0.123138,0.004919,-0.109526,-0.174968,0.361594,-0.080892,0.407760,0.129328,1.039702,1.000000,0.160000,True
3.660000,EP-001,reach,0.188236,0.191784,0.119831,0.004571,-0.111370,-0.176818,0.363103,-0.079717,0.405763,0.138939,1.332944,1.000000,0.160000,True
3.680000,EP-001,reach,0.185176,0.189457,0.120249,0.003606,-0.111645,-0.174606,0.364006,-0.077672,0.403728,0.151973,0.775806,1.000000,0.160000,True
3.700000,EP-001,reach,0.185481,0.190061,0.118247,0.002219,-0.112372,-0.173583,0.365134,-0.076795,0.401771,0.121719,1.121567,1.000000,0.160000,True
3.720000,EP-001,reach,0.186040,0.189984,0.117116,0.000819,-0.112874,-0.172082,0.366313,-0.075485,0.399959,0.126193,0.735900,1.000000,0.160000,True
3.740000,EP-001,reach,0.184517,0.187561,0.116386,-0.000640,-0.115855,-0.174980,0.367331,-0.073739,0.398250,0.133106,1.329845,1.000000,0.160000,True
3.760000,EP-001,reach,0.184158,0.187015,0.114892,-0.002993,-0.114811,-0.171865,0.368508,-0.072380,0.396306,0.133415,0.948857,1.000000,0.160000,True
3.780000,EP-001,reach,0.184445,0.184257,0.113083,-0.003281,-0.114823,-0.173395,0.369403,-0.071360,0.394579,0.110711,0.981325,1.000000,0.160000,True
3.800000,EP-001,reach,0.182091,0.186359,0.111672,-0.002449,-0.116116,-0.174496,0.370329,-0.070043,0.392873,0.117627,0.814546,1.000000,0.160000,True
3.820000,EP-001,reach,0.185473,0.183972,0.108135,-0.007842,-0.119459,-0.173266,0.371340,-0.068609,0.391338,0.116837,0.930785,1.000000,0.160000,True
3.840000,EP-001,reach,0.181216,0.185734,0.108495,-0.009216,-0.117311,-0.171627,0.372618,-0.066931,0.389580,0.135368,0.937923,1.000000,0.160000,True
3.860000,EP-001,reach,0.182147,0.184674,0.103932,-0.009046,-0.118272,-0.171526,0.373362,-0.065792,0.388003,0.103324,0.967877,1.000000,0.160000,True
3.880000,EP-001,reach,0.181082,0.180771,0.102430,-0.009703,-0.119955,-0.172496,0.374092,-0.064516,0.386636,0.100211,1.492858,1.000000,0.160000,True
3.900000,EP-001,reach,0.179989,0.180498,0.103853,-0.011801,-0.123157,-0.173614,0.375161,-0.063053,0.384949,0.124818,0.900925,1.000000,0.160000,True
3.920000,EP-001,reach,0.181319,0.180105,0.102548,-0.012661,-0.124431,-0.172023,0.375799,-0.061528,0.383627,0.107096,1.273438,1.000000,0.160000,True
3.940000,EP-001,reach,0.181489,0.180123,0.103649,-0.016008,-0.123065,-0.172756,0.377156,-0.060582,0.382055,0.114251,1.464811,1.000000,0.160000,True
3.960000,EP-001,reach,0.181603,0.175419,0.100975,-0.017731,-0.125552,-0.172609,0.377497,-0.059101,0.380912,0.093967,0.925059,1.000000,0.160000,True
3.980000,EP-001,reach,0.179730,0.176770,0.100181,-0.017859,-0.126894,-0.172235,0.378618,-0.057929,0.379641,0.103567,0.658302,1.000000,0.160000,True
4.000000,EP-001,reach,0.177613,0.178616,0.096628,-0.019278,-0.124425,-0.169620,0.379434,-0.056079,0.378471,0.117816,1.429355,1.000000,0.160000,True
4.020000,EP-001,reach,0.178999,0.174607,0.096284,-0.019232,-0.125254,-0.173930,0.379927,-0.054823,0.377287,0.090549,0.848669,1.000000,0.160000,True
4.040000,EP-001,reach,0.174949,0.173993,0.095889,-0.020846,-0.126507,-0.171940,0.380969,-0.053651,0.376186,0.095137,1.122561,1.000000,0.160000,True
4.060000,EP-001,reach,0.176591,0.172572,0.093482,-0.027347,-0.126346,-0.173182,0.381841,-0.052519,0.375315,0.082597,1.341301,1.000000,0.160000,True
4.080000,EP-001,reach,0.176694,0.169680,0.091754,-0.024896,-0.127786,-0.169891,0.382518,-0.051114,0.374414,0.089200,1.473092,1.000000,0.160000,True
4.100000,EP-001,reach,0.176140,0.171797,0.089909,-0.028498,-0.131690,-0.169182,0.383235,-0.050250,0.373793,0.063083,1.344765,1.000000,0.160000,True
4.120000,EP-001,reach,0.172940,0.169659,0.086915,-0.032084,-0.129049,-0.168464,0.384078,-0.048624,0.373058,0.099699,1.247178,1.000000,0.154375,True
4.140000,EP-001,reach,0.171786,0.168380,0.085471,-0.029782,-0.131386,-0.170695,0.384692,-0.047605,0.372169,0.074591,1.757619,1.000000,0.148750,True
4.160000,EP-001,reach,0.175882,0.168098,0.083187,-0.032052,-0.131692,-0.169693,0.385446,-0.046352,0.371839,0.077156,1.566002,1.000000,0.143125,True
4.180000,EP-001,reach,0.171970,0.167053,0.084420,-0.033749,-0.130786,-0.168207,0.386099,-0.045017,0.371244,0.081753,2.077802,1.000000,0.137500,True
4.200000,EP-001,grasp,0.169606,0.161875,0.081919,-0.036575,-0.133241,-0.168683,0.386933,-0.043731,0.370983,0.078778,1.301260,1.000000,0.131875,True
4.220000,EP-001,grasp,0.169549,0.164298,0.079822,-0.037598,-0.132305,-0.168086,0.387416,-0.042369,0.370587,0.074238,1.560962,1.000000,0.126250,True
4.240000,EP-001,grasp,0.170752,0.161537,0.079844,-0.037823,-0.135328,-0.167784,0.388395,-0.041137,0.370277,0.080874,1.603383,1.000000,0.120625,True
4.260000,EP-001,grasp,0.171816,0.161488,0.076961,-0.041157,-0.136723,-0.167210,0.388921,-0.040000,0.370478,0.063910,1.798591,1.000000,0.115000,True
4.280000,EP-001,grasp,0.169348,0.159000,0.077847,-0.040501,-0.137940,-0.167320,0.389556,-0.038989,0.370406,0.058435,1.740178,1.000000,0.109375,True
4.300000,EP-001,grasp,0.170452,0.157590,0.077612,-0.041584,-0.137804,-0.165983,0.390501,-0.037564,0.370296,0.084431,1.711168,1.000000,0.103750,True
4.320000,EP-001,grasp,0.168281,0.159136,0.073936,-0.043393,-0.140830,-0.168365,0.391432,-0.036512,0.370403,0.069737,2.291642,1.000000,0.098125,True
4.340000,EP-001,grasp,0.167931,0.156497,0.070723,-0.044125,-0.139103,-0.166258,0.392062,-0.035156,0.370849,0.079285,1.718899,1.000000,0.092500,True
4.360000,EP-001,grasp,0.167975,0.154882,0.068004,-0.046080,-0.139880,-0.167100,0.392588,-0.034321,0.371151,0.051236,1.920122,1.000000,0.086875,True
4.380000,EP-001,grasp,0.165201,0.153664,0.071671,-0.049117,-0.141178,-0.164660,0.393527,-0.033459,0.371726,0.068553,1.878757,1.000000,0.081250,True
4.400000,EP-001,grasp,0.165469,0.153002,0.067826,-0.050324,-0.144392,-0.165067,0.394122,-0.031988,0.372419,0.086664,1.682361,1.000000,0.075625,True
4.420000,EP-001,grasp,0.163695,0.151633,0.063881,-0.049974,-0.144925,-0.162557,0.394951,-0.030478,0.373193,0.095090,2.097976,1.000000,0.070000,True
4.440000,EP-001,grasp,0.162565,0.146869,0.065673,-0.050126,-0.141297,-0.160858,0.395777,-0.029625,0.373743,0.064224,1.387113,1.000000,0.064375,True
4.460000,EP-001,grasp,0.163742,0.147880,0.060070,-0.052734,-0.144428,-0.164039,0.396224,-0.028630,0.374818,0.078484,2.273224,1.000000,0.058750,True
4.480000,EP-001,grasp,0.160756,0.147592,0.060341,-0.055096,-0.141565,-0.162708,0.397425,-0.027385,0.375755,0.097619,1.537056,1.000000,0.053125,True
4.500000,EP-001,grasp,0.161330,0.147819,0.059092,-0.055480,-0.145310,-0.160378,0.398084,-0.026371,0.376622,0.075485,8.420340,1.000000,0.047500,True
4.520000,EP-001,grasp,0.159238,0.147489,0.057359,-0.059814,-0.144308,-0.158029,0.398994,-0.025317,0.377627,0.086601,8.569188,1.000000,0.041875,True
4.540000,EP-001,grasp,0.159498,0.142774,0.054649,-0.059974,-0.147611,-0.158367,0.399758,-0.024414,0.379178,0.096774,8.431404,1.000000,0.036250,True
4.560000,EP-001,grasp,0.158041,0.145822,0.058332,-0.060425,-0.146989,-0.158179,0.400653,-0.023288,0.380490,0.097241,8.453854,1.000000,0.030625,True
4.580000,EP-001,grasp,0.159667,0.141777,0.052630,-0.061326,-0.146940,-0.158235,0.401662,-0.022242,0.382132,0.109677,8.972990,1.000000,0.025000,True
4.600000,EP-001,grasp,0.157331,0.141089,0.052226,-0.063084,-0.146307,-0.158099,0.402873,-0.021354,0.383545,0.102787,9.343186,0.180000,0.023208,True
4.620000,EP-001,grasp,0.156506,0.138264,0.050144,-0.064366,-0.145212,-0.156109,0.403970,-0.020421,0.385081,0.106004,8.989990,0.180000,0.024829,True
4.640000,EP-001,grasp,0.158035,0.136863,0.046150,-0.067096,-0.146836,-0.155185,0.404711,-0.019238,0.386890,0.114319,8.769866,0.180000,0.025269,True
4.660000,EP-001,grasp,0.150384,0.138632,0.046138,-0.067535,-0.150994,-0.154939,0.405900,-0.018131,0.388348,0.107411,8.575564,0.180000,0.024809,True
4.680000,EP-001,grasp,0.152208,0.134838,0.045691,-0.067658,-0.149335,-0.155289,0.406745,-0.017208,0.390368,0.118903,8.565363,0.180000,0.025339,True
4.700000,EP-001,grasp,0.148921,0.133701,0.045187,-0.072132,-0.150113,-0.156050,0.407573,-0.016269,0.392264,0.112472,9.157169,0.180000,0.025563,True
4.720000,EP-001,grasp,0.152165,0.134279,0.041715,-0.072520,-0.151323,-0.154100,0.408987,-0.015317,0.394538,0.141882,9.096766,0.180000,0.026503,True
4.740000,EP-001,grasp,0.151972,0.133804,0.041192,-0.072586,-0.149982,-0.152561,0.410165,-0.014065,0.396507,0.130938,9.246433,0.180000,0.025295,True
4.760000,EP-001,grasp,0.151413,0.127631,0.038563,-0.071187,-0.148983,-0.152921,0.411197,-0.013483,0.398258,0.105590,9.185371,0.180000,0.027743,True
4.780000,EP-001,grasp,0.149977,0.128266,0.038355,-0.073725,-0.152511,-0.149820,0.412501,-0.012446,0.401048,0.163521,9.305629,0.180000,0.025281,True
4.800000,EP-001,grasp,0.147388,0.127192,0.032219,-0.073726,-0.150616,-0.151610,0.413767,-0.011398,0.403103,0.131514,8.786367,0.180000,0.025352,True
4.820000,EP-001,grasp,0.150441,0.128590,0.035200,-0.075384,-0.150654,-0.149040,0.414808,-0.010783,0.405702,0.142816,8.761021,0.180000,0.025857,True
4.840000,EP-001,grasp,0.147378,0.128218,0.031793,-0.079382,-0.154787,-0.147158,0.416005,-0.009860,0.408014,0.139751,8.723956,0.180000,0.024988,True
4.860000,EP-001,grasp,0.145633,0.123079,0.030264,-0.080133,-0.150968,-0.145554,0.417514,-0.008860,0.410625,0.159621,9.030632,0.180000,0.024733,True
4.880000,EP-001,grasp,0.143441,0.122354,0.025304,-0.083099,-0.151524,-0.145506,0.418869,-0.007890,0.413256,0.155598,9.010262,0.180000,0.026328,True
4.900000,EP-001,grasp,0.144846,0.121728,0.026356,-0.080894,-0.154027,-0.143115,0.420235,-0.007232,0.415844,0.149982,2.622377,0.180000,0.022884,True
4.920000,EP-001,grasp,0.142566,0.120785,0.027253,-0.082866,-0.152312,-0.144904,0.421856,-0.006368,0.418401,0.157014,2.274622,0.180000,0.023260,True
4.940000,EP-001,grasp,0.141710,0.117198,0.028180,-0.084372,-0.154894,-0.144226,0.423420,-0.005561,0.421429,0.175203,2.690159,0.180000,0.027185,True
4.960000,EP-001,grasp,0.141772,0.117585,0.022096,-0.085561,-0.153928,-0.140432,0.424585,-0.004915,0.424102,0.148369,2.894523,0.180000,0.025818,True
4.980000,EP-001,grasp,0.140860,0.113858,0.020559,-0.087156,-0.155055,-0.142436,0.426272,-0.003734,0.426890,0.175106,2.711943,0.180000,0.025620,True
5.000000,EP-001,grasp,0.138368,0.109495,0.020670,-0.088820,-0.157691,-0.140346,0.427862,-0.003115,0.429857,0.172347,1.948575,0.180000,0.025379,True
5.020000,EP-001,grasp,0.140541,0.110046,0.018763,-0.090003,-0.156359,-0.141730,0.429414,-0.002517,0.432626,0.159268,2.729584,0.180000,0.025357,True
5.040000,EP-001,grasp,0.136214,0.111043,0.015856,-0.089884,-0.157350,-0.136385,0.431083,-0.001469,0.435870,0.188834,2.657081,0.180000,0.024105,True
5.060000,EP-001,grasp,0.135094,0.110492,0.014875,-0.094147,-0.158175,-0.135968,0.432519,-0.000902,0.438657,0.159253,3.039992,0.180000,0.024780,True
5.080000,EP-001,grasp,0.136278,0.104508,0.012947,-0.095802,-0.159489,-0.137150,0.434372,0.000005,0.441689,0.182730,2.755951,0.180000,0.024026,True
5.100000,EP-001,grasp,0.135050,0.103775,0.012832,-0.095499,-0.159245,-0.137603,0.436281,0.000952,0.444728,0.183428,3.001194,0.180000,0.026248,True
5.120000,EP-001,grasp,0.134001,0.105026,0.011483,-0.095030,-0.160230,-0.133505,0.437845,0.001599,0.447641,0.169150,2.732107,0.180000,0.025722,True
5.140000,EP-001,grasp,0.132312,0.098571,0.011312,-0.097662,-0.156968,-0.132397,0.439409,0.002680,0.450693,0.178629,2.953373,0.180000,0.025318,True
5.160000,EP-001,grasp,0.132022,0.103064,0.008448,-0.099579,-0.161902,-0.129950,0.441401,0.003076,0.453961,0.193077,3.154519,0.180000,0.025471,True
5.180000,EP-001,grasp,0.130138,0.102349,0.006464,-0.099273,-0.159121,-0.127805,0.443337,0.004109,0.457092,0.191619,2.820253,0.180000,0.024939,True
5.200000,EP-001,grasp,0.127530,0.094878,0.004092,-0.101594,-0.160420,-0.129141,0.445070,0.004922,0.460336,0.189881,3.001663,0.180000,0.023900,True
5.220000,EP-001,grasp,0.130122,0.099076,0.003642,-0.105839,-0.161634,-0.128700,0.446824,0.005823,0.463362,0.179693,2.976389,0.180000,0.026815,True
5.240000,EP-001,grasp,0.126512,0.096191,-0.000835,-0.105736,-0.158915,-0.127590,0.449062,0.006504,0.466315,0.190199,3.119259,0.180000,0.025740,True
5.260000,EP-001,grasp,0.126696,0.097167,0.002233,-0.108584,-0.161438,-0.126536,0.450591,0.007159,0.469649,0.185060,2.927207,0.180000,0.024901,True
5.280000,EP-001,grasp,0.127141,0.094009,-0.002176,-0.107011,-0.158655,-0.126991,0.452827,0.007892,0.472825,0.199130,3.109767,0.180000,0.025681,True
5.300000,EP-001,grasp,0.125081,0.091773,-0.002104,-0.108567,-0.160951,-0.125104,0.454747,0.008624,0.475981,0.189404,2.471062,0.180000,0.026375,True
5.320000,EP-001,grasp,0.128154,0.090857,-0.007011,-0.108455,-0.160390,-0.122693,0.456591,0.009555,0.479031,0.184598,2.935342,0.180000,0.026282,True
5.340000,EP-001,grasp,0.120935,0.090628,-0.005902,-0.107162,-0.161282,-0.123855,0.458995,0.010036,0.481965,0.190108,3.246387,0.180000,0.025754,True
5.360000,EP-001,grasp,0.120900,0.088038,-0.008457,-0.112413,-0.160298,-0.122147,0.460928,0.010961,0.485360,0.202384,3.212922,0.180000,0.025922,True
5.380000,EP-001,grasp,0.121141,0.086346,-0.010948,-0.112708,-0.160041,-0.117094,0.462784,0.011616,0.488229,0.174763,2.761305,0.180000,0.024847,True
5.400000,EP-001,grasp,0.122025,0.082644,-0.013283,-0.114482,-0.162293,-0.118730,0.465152,0.012413,0.491465,0.202726,2.816923,0.180000,0.026460,True
5.420000,EP-001,grasp,0.118596,0.084066,-0.015214,-0.119300,-0.161789,-0.115259,0.467115,0.013084,0.494268,0.171792,3.163345,0.180000,0.026050,True
5.440000,EP-001,grasp,0.115796,0.081909,-0.012833,-0.117419,-0.159285,-0.113558,0.469029,0.014190,0.497589,0.198810,3.160354,0.180000,0.026051,True
5.460000,EP-001,grasp,0.118630,0.083149,-0.015310,-0.118532,-0.162924,-0.113945,0.471360,0.014518,0.500421,0.183260,3.196823,0.180000,0.023756,True
5.480000,EP-001,grasp,0.114501,0.078880,-0.018574,-0.118218,-0.159474,-0.111431,0.473665,0.015402,0.503638,0.203473,3.089684,0.180000,0.025738,True
5.500000,EP-001,grasp,0.114552,0.077282,-0.020069,-0.121047,-0.162900,-0.111677,0.475895,0.016154,0.506686,0.192665,3.107001,0.180000,0.025763,True
5.520000,EP-001,grasp,0.115134,0.074982,-0.023060,-0.122884,-0.163255,-0.111436,0.478007,0.016954,0.509552,0.182809,3.373515,0.180000,0.025899,True
5.540000,EP-001,grasp,0.111767,0.075519,-0.026331,-0.121230,-0.165050,-0.108974,0.480181,0.017682,0.512179,0.173817,2.821607,0.180000,0.022429,True
5.560000,EP-001,grasp,0.111050,0.072629,-0.027878,-0.123357,-0.163880,-0.107391,0.482444,0.018432,0.515081,0.188745,2.696896,0.180000,0.023168,True
5.580000,EP-001,grasp,0.111412,0.070378,-0.027724,-0.125741,-0.165302,-0.105989,0.484546,0.019272,0.517932,0.181434,3.373387,0.180000,0.025360,True
5.600000,EP-001,grasp,0.109326,0.072347,-0.028660,-0.126675,-0.163616,-0.104731,0.486962,0.019658,0.520923,0.191693,2.874259,0.180000,0.024106,True
5.620000,EP-001,grasp,0.109009,0.071113,-0.031791,-0.127125,-0.161781,-0.104096,0.489018,0.020647,0.523655,0.175569,3.283103,0.180000,0.025465,True
5.640000,EP-001,grasp,0.106105,0.066247,-0.030460,-0.126580,-0.162961,-0.100539,0.491251,0.021225,0.526365,0.178477,2.897567,0.180000,0.024976,True
5.660000,EP-001,grasp,0.106289,0.063880,-0.032491,-0.126801,-0.163816,-0.101082,0.493498,0.022214,0.529077,0.182295,2.775916,0.180000,0.025947,True
5.680000,EP-001,grasp,0.103770,0.065608,-0.034631,-0.131994,-0.164484,-0.100038,0.495465,0.022774,0.531764,0.167113,3.518778,0.180000,0.024493,True
5.700000,EP-001,grasp,0.102009,0.061142,-0.039109,-0.129410,-0.163997,-0.096627,0.497720,0.023584,0.534386,0.176710,3.060758,0.180000,0.023975,True
5.720000,EP-001,grasp,0.105914,0.065132,-0.038409,-0.132174,-0.165161,-0.098148,0.500253,0.024500,0.537082,0.190147,2.679523,0.180000,0.025596,True
5.740000,EP-001,grasp,0.102895,0.059162,-0.039739,-0.132815,-0.164887,-0.095244,0.502263,0.025505,0.539401,0.162177,3.008482,0.180000,0.024776,True
5.760000,EP-001,grasp,0.102519,0.059297,-0.043185,-0.132996,-0.160054,-0.091601,0.504350,0.026172,0.541918,0.164719,3.015628,0.180000,0.023856,True
5.780000,EP-001,grasp,0.098621,0.054375,-0.046172,-0.136974,-0.162599,-0.092313,0.506613,0.026926,0.544112,0.161646,2.997715,0.180000,0.023029,True
5.800000,EP-001,grasp,0.098956,0.054751,-0.041640,-0.135331,-0.164309,-0.088837,0.508646,0.027893,0.546573,0.167535,3.095302,0.180000,0.028272,True
5.820000,EP-001,grasp,0.097615,0.054925,-0.045179,-0.139640,-0.161892,-0.089932,0.510903,0.028347,0.549001,0.167775,2.715742,0.180000,0.024684,True
5.840000,EP-001,grasp,0.094715,0.052415,-0.048283,-0.139455,-0.160603,-0.088868,0.512888,0.028987,0.551249,0.154172,2.950118,0.180000,0.024805,True
5.860000,EP-001,grasp,0.096586,0.049416,-0.046915,-0.141091,-0.163757,-0.086888,0.515139,0.030056,0.553680,0.176044,3.146417,0.180000,0.023040,True
5.880000,EP-001,grasp,0.093602,0.052388,-0.049240,-0.138358,-0.162899,-0.086026,0.516952,0.030902,0.555994,0.152104,3.182643,0.180000,0.024006,True
5.900000,EP-001,grasp,0.093298,0.048275,-0.051829,-0.139477,-0.164548,-0.084250,0.519459,0.031959,0.557986,0.168031,3.020834,0.180000,0.024885,True
5.920000,EP-001,grasp,0.090241,0.045285,-0.053755,-0.141839,-0.164975,-0.082894,0.521231,0.032932,0.560104,0.147493,2.758643,0.180000,0.025383,True
5.940000,EP-001,grasp,0.092919,0.043184,-0.054519,-0.143239,-0.160420,-0.079534,0.523096,0.033255,0.562178,0.142082,2.416352,0.180000,0.025844,True
5.960000,EP-001,grasp,0.091480,0.042151,-0.055085,-0.145833,-0.157248,-0.078644,0.525301,0.034677,0.564287,0.168652,3.367647,0.180000,0.024279,True
5.980000,EP-001,grasp,0.089840,0.043055,-0.058761,-0.143464,-0.163387,-0.078058,0.527253,0.035397,0.566192,0.140776,2.627205,0.180000,0.025540,True
6.000000,EP-001,grasp,0.086795,0.038318,-0.060798,-0.144996,-0.164595,-0.077359,0.529279,0.036152,0.568249,0.148071,2.798996,0.180000,0.026225,True
6.020000,EP-001,grasp,0.086257,0.037989,-0.061166,-0.146751,-0.159897,-0.069872,0.531003,0.036953,0.570129,0.134325,2.913772,0.180000,0.024519,True
6.040000,EP-001,grasp,0.087803,0.035162,-0.067843,-0.149266,-0.160301,-0.073483,0.533122,0.038139,0.571984,0.153227,3.018106,0.180000,0.024973,True
6.060000,EP-001,grasp,0.084459,0.036745,-0.065071,-0.150618,-0.161024,-0.069530,0.535463,0.038673,0.573840,0.150679,2.868210,0.180000,0.023193,True
6.080000,EP-001,grasp,0.084176,0.033065,-0.067392,-0.151216,-0.159371,-0.071877,0.536552,0.039482,0.575513,0.107223,2.627311,0.180000,0.024204,True
6.100000,EP-001,grasp,0.082887,0.033064,-0.068385,-0.150092,-0.161921,-0.069664,0.538585,0.040474,0.577243,0.141465,2.826473,0.180000,0.023625,True
6.120000,EP-001,grasp,0.079897,0.031073,-0.070210,-0.154465,-0.160821,-0.065141,0.540244,0.041155,0.579111,0.130087,3.399854,0.180000,0.025730,True
6.140000,EP-001,grasp,0.082759,0.027796,-0.071000,-0.153851,-0.159864,-0.067079,0.542039,0.042346,0.580526,0.128763,3.500578,0.180000,0.024855,True
6.160000,EP-001,grasp,0.076393,0.028178,-0.072920,-0.152553,-0.161325,-0.065462,0.543422,0.043180,0.582216,0.118183,2.714898,0.180000,0.026675,True
6.180000,EP-001,grasp,0.078600,0.026990,-0.074543,-0.154630,-0.159934,-0.062354,0.545167,0.044175,0.583674,0.125508,2.936203,0.180000,0.025236,True
6.200000,EP-001,grasp,0.077026,0.022294,-0.076409,-0.154302,-0.160792,-0.061780,0.547015,0.045116,0.585118,0.126775,2.241406,0.180000,0.025865,True
6.220000,EP-001,grasp,0.073623,0.023532,-0.077092,-0.157225,-0.159529,-0.059525,0.548508,0.045847,0.586584,0.112073,2.769654,0.180000,0.025572,True
6.240000,EP-001,grasp,0.075440,0.026286,-0.080095,-0.158141,-0.159736,-0.057248,0.550287,0.047153,0.587967,0.131339,2.886784,0.180000,0.025253,True
6.260000,EP-001,grasp,0.074612,0.018921,-0.079418,-0.157650,-0.162706,-0.054560,0.551423,0.047761,0.589455,0.099959,2.578204,0.180000,0.023943,True
6.280000,EP-001,grasp,0.072798,0.018780,-0.084971,-0.159662,-0.159349,-0.053976,0.553000,0.049011,0.590730,0.118723,3.149826,0.180000,0.026745,True
6.300000,EP-001,grasp,0.070367,0.014249,-0.083695,-0.161040,-0.161369,-0.052185,0.554814,0.049611,0.592064,0.117210,2.859760,0.180000,0.024951,True
6.320000,EP-001,grasp,0.071170,0.015402,-0.084872,-0.163221,-0.160232,-0.049000,0.555624,0.050884,0.593536,0.107337,2.760710,0.180000,0.023151,True
6.340000,EP-001,grasp,0.071053,0.012265,-0.089004,-0.165573,-0.161171,-0.047226,0.556921,0.051690,0.594614,0.094199,1.827842,0.180000,0.024450,True
6.360000,EP-001,grasp,0.068597,0.012756,-0.089287,-0.162040,-0.157162,-0.048244,0.558326,0.052811,0.595971,0.112284,2.363689,0.180000,0.023909,True
6.380000,EP-001,grasp,0.069735,0.009965,-0.088198,-0.165769,-0.158579,-0.048854,0.559556,0.053704,0.597037,0.093160,2.709092,0.180000,0.026257,True
6.400000,EP-001,transport,0.067320,0.006709,-0.091919,-0.167139,-0.158358,-0.045921,0.560878,0.054478,0.598245,0.099933,2.344156,0.180000,0.026124,True
6.420000,EP-001,transport,0.066067,0.008590,-0.094581,-0.165613,-0.155591,-0.041124,0.561915,0.055649,0.599173,0.090593,1.960378,0.180000,0.026622,True
6.440000,EP-001,transport,0.065879,0.005046,-0.099261,-0.169092,-0.156068,-0.041786,0.562882,0.056842,0.600337,0.095805,2.264086,0.180000,0.027297,True
6.460000,EP-001,transport,0.061682,0.002282,-0.095809,-0.170642,-0.157121,-0.040454,0.564083,0.057946,0.601677,0.106602,2.825359,0.180000,0.024376,True
6.480000,EP-001,transport,0.060771,0.002358,-0.097693,-0.170331,-0.159575,-0.038382,0.565460,0.058659,0.602472,0.086810,2.560365,0.180000,0.023098,True
6.500000,EP-001,transport,0.061204,-0.000759,-0.098454,-0.170422,-0.155110,-0.033614,0.566224,0.059592,0.603476,0.076955,2.584045,0.180000,0.024075,True
6.520000,EP-001,transport,0.060087,-0.000259,-0.097815,-0.170762,-0.156134,-0.034228,0.566541,0.060817,0.604337,0.075020,2.366198,0.180000,0.025467,True
6.540000,EP-001,transport,0.060448,-0.002511,-0.102412,-0.171237,-0.155910,-0.033179,0.567819,0.061957,0.605339,0.099310,2.735686,0.180000,0.022253,True
6.560000,EP-001,transport,0.058778,-0.004533,-0.103719,-0.171380,-0.153879,-0.031957,0.568548,0.062939,0.605996,0.068896,1.465983,0.180000,0.024424,True
6.580000,EP-001,transport,0.056198,-0.004523,-0.106459,-0.173811,-0.155535,-0.030841,0.569570,0.063962,0.606907,0.087013,1.887288,0.180000,0.025916,True
6.600000,EP-001,transport,0.055138,-0.009020,-0.107028,-0.173903,-0.154312,-0.023217,0.570205,0.065265,0.607909,0.087577,2.731816,0.180000,0.024165,True
6.620000,EP-001,transport,0.053271,-0.007177,-0.108482,-0.175413,-0.152446,-0.025799,0.571235,0.066339,0.608780,0.084882,2.458170,0.180000,0.024920,True
6.640000,EP-001,transport,0.052010,-0.013236,-0.108806,-0.176992,-0.152501,-0.023780,0.571757,0.067365,0.609432,0.065495,2.200748,0.180000,0.024106,True
6.660000,EP-001,transport,0.050753,-0.009331,-0.110603,-0.176229,-0.153851,-0.022748,0.572384,0.068176,0.610236,0.063963,2.005700,0.180000,0.026851,True
6.680000,EP-001,transport,0.051659,-0.013044,-0.114073,-0.177080,-0.150311,-0.018916,0.572871,0.069393,0.610970,0.076426,1.562531,0.180000,0.027061,True
6.700000,EP-001,transport,0.048468,-0.015276,-0.115129,-0.175623,-0.150320,-0.020293,0.573392,0.070420,0.611725,0.068128,1.920723,0.180000,0.023994,True
6.720000,EP-001,transport,0.047512,-0.017548,-0.113832,-0.178249,-0.148751,-0.019913,0.573966,0.071305,0.612316,0.062048,1.970280,0.180000,0.024170,True
6.740000,EP-001,transport,0.047153,-0.017163,-0.118821,-0.180930,-0.151201,-0.016128,0.574589,0.072722,0.612981,0.084913,1.719589,0.180000,0.025185,True
6.760000,EP-001,transport,0.045015,-0.019789,-0.117738,-0.179756,-0.150322,-0.012987,0.574919,0.073674,0.613816,0.067620,2.335025,0.180000,0.025774,True
6.780000,EP-001,transport,0.044310,-0.021374,-0.117896,-0.181754,-0.148580,-0.008314,0.575196,0.074661,0.614272,0.056061,2.207566,0.180000,0.025506,True
6.800000,EP-001,transport,0.040247,-0.021097,-0.120822,-0.179771,-0.149005,-0.010060,0.575815,0.076019,0.615000,0.083985,1.807826,0.180000,0.025747,True
6.820000,EP-001,transport,0.042950,-0.024873,-0.122888,-0.185368,-0.148953,-0.009461,0.575996,0.076993,0.615658,0.057447,2.110092,0.180000,0.026104,True
6.840000,EP-001,transport,0.040799,-0.026129,-0.122682,-0.184536,-0.148801,-0.006719,0.576267,0.078079,0.616213,0.062094,1.814441,0.180000,0.026345,True
6.860000,EP-001,transport,0.040413,-0.026675,-0.125656,-0.185240,-0.148581,-0.005761,0.576441,0.079202,0.616954,0.067173,1.872123,0.180000,0.027052,True
6.880000,EP-001,transport,0.039545,-0.027255,-0.127654,-0.184783,-0.148573,-0.003971,0.576727,0.080200,0.617442,0.058616,1.630933,0.180000,0.025305,True
6.900000,EP-001,transport,0.035076,-0.030662,-0.129394,-0.185845,-0.148023,-0.000847,0.576941,0.080970,0.618042,0.049944,2.432750,0.180000,0.024641,True
6.920000,EP-001,transport,0.040332,-0.031746,-0.128813,-0.188695,-0.145897,0.001268,0.576815,0.082168,0.618471,0.064701,1.285301,0.180000,0.025061,True
6.940000,EP-001,transport,0.035839,-0.033471,-0.130933,-0.189776,-0.146405,0.001641,0.577560,0.083440,0.619031,0.078204,1.636389,0.180000,0.027458,True
6.960000,EP-001,transport,0.034742,-0.033967,-0.131096,-0.187409,-0.147497,0.006109,0.577641,0.084235,0.619695,0.050740,1.938267,0.180000,0.026022,True
6.980000,EP-001,transport,0.030670,-0.034386,-0.135349,-0.186165,-0.144724,0.006159,0.577652,0.085412,0.620178,0.063671,1.906698,0.180000,0.025896,True
7.000000,EP-001,transport,0.033154,-0.039612,-0.136742,-0.186834,-0.141732,0.008273,0.577947,0.086520,0.620567,0.061939,1.133302,0.180000,0.026556,True
7.020000,EP-001,transport,0.031712,-0.039949,-0.138351,-0.190224,-0.141583,0.009155,0.577943,0.087725,0.621143,0.066847,1.295074,0.180000,0.026445,True
7.040000,EP-001,transport,0.029425,-0.041367,-0.138696,-0.189585,-0.146031,0.012324,0.578003,0.088748,0.621586,0.057519,1.505747,0.180000,0.027615,True
7.060000,EP-001,transport,0.029208,-0.041951,-0.141569,-0.192176,-0.143673,0.014227,0.577630,0.089727,0.622036,0.056790,1.280322,0.180000,0.024330,True
7.080000,EP-001,transport,0.029630,-0.042118,-0.140552,-0.193651,-0.140616,0.016453,0.578005,0.090597,0.622652,0.056252,1.289546,0.180000,0.025378,True
7.100000,EP-001,transport,0.026072,-0.045967,-0.142838,-0.190301,-0.141030,0.016071,0.578145,0.091790,0.622845,0.060555,1.380016,0.180000,0.025951,True
7.120000,EP-001,transport,0.024085,-0.047165,-0.146220,-0.191716,-0.140402,0.020110,0.578321,0.092753,0.623366,0.055284,1.380577,0.180000,0.026019,True
7.140000,EP-001,transport,0.026302,-0.047317,-0.150591,-0.193805,-0.140052,0.020156,0.578360,0.093663,0.623780,0.049436,1.708090,0.180000,0.024764,True
7.160000,EP-001,transport,0.023566,-0.052466,-0.150275,-0.194447,-0.139111,0.023025,0.578294,0.094897,0.624105,0.063776,0.894371,0.180000,0.023476,True
7.180000,EP-001,transport,0.021762,-0.053291,-0.146765,-0.193110,-0.140054,0.025867,0.577895,0.095767,0.624388,0.049159,1.644625,0.180000,0.024878,True
7.200000,EP-001,transport,0.024336,-0.054351,-0.150397,-0.194559,-0.136080,0.028899,0.577723,0.096569,0.624998,0.050177,1.259187,0.180000,0.024439,True
7.220000,EP-001,transport,0.019979,-0.055221,-0.151462,-0.196090,-0.138727,0.027812,0.578119,0.097854,0.625325,0.070835,1.463066,0.180000,0.025045,True
7.240000,EP-001,transport,0.018333,-0.056403,-0.153693,-0.195724,-0.136683,0.028694,0.578015,0.098599,0.625670,0.042346,1.177492,0.180000,0.026298,True
7.260000,EP-001,transport,0.017844,-0.059080,-0.153832,-0.196696,-0.133466,0.032461,0.578133,0.099689,0.626029,0.057513,1.913189,0.180000,0.025880,True
7.280000,EP-001,transport,0.015692,-0.057172,-0.158668,-0.197817,-0.133425,0.035979,0.577948,0.100325,0.626385,0.037047,0.723869,0.180000,0.023961,True
7.300000,EP-001,transport,0.015464,-0.062444,-0.160145,-0.198797,-0.134337,0.035528,0.577981,0.101493,0.626623,0.058173,1.541696,0.180000,0.024366,True
7.320000,EP-001,transport,0.014213,-0.063217,-0.160951,-0.196881,-0.133606,0.041585,0.577709,0.102286,0.627107,0.049114,1.062075,0.180000,0.025346,True
7.340000,EP-001,transport,0.011851,-0.062797,-0.159745,-0.199454,-0.133748,0.036970,0.577991,0.103203,0.627191,0.047579,1.101992,0.180000,0.026326,True
7.360000,EP-001,transport,0.011290,-0.064809,-0.160132,-0.200997,-0.132851,0.043985,0.577855,0.103972,0.627733,0.049574,1.546567,0.180000,0.025073,True
7.380000,EP-001,transport,0.010988,-0.067539,-0.161813,-0.197066,-0.131698,0.045381,0.577980,0.105477,0.627879,0.074225,1.071187,0.180000,0.025364,True
7.400000,EP-001,transport,0.009940,-0.068480,-0.164047,-0.198374,-0.128573,0.047206,0.578012,0.106018,0.628332,0.035797,1.364123,0.180000,0.023558,True
7.420000,EP-001,transport,0.009082,-0.069340,-0.167106,-0.199914,-0.130445,0.046185,0.577953,0.106949,0.628771,0.052868,1.500391,0.180000,0.024620,True
7.440000,EP-001,transport,0.008227,-0.072134,-0.165312,-0.201247,-0.128164,0.051405,0.578057,0.107938,0.628960,0.050208,0.907473,0.180000,0.024300,True
7.460000,EP-001,transport,0.006264,-0.072659,-0.168246,-0.201312,-0.127571,0.053038,0.578060,0.108600,0.629233,0.037952,1.627723,0.180000,0.025326,True
7.480000,EP-001,transport,0.005506,-0.076568,-0.169165,-0.204189,-0.126802,0.055079,0.578244,0.109527,0.629647,0.052731,1.397911,0.180000,0.024832,True
7.500000,EP-001,transport,0.002999,-0.076595,-0.170551,-0.202509,-0.127013,0.054776,0.578290,0.110064,0.629842,0.029785,0.966593,0.180000,0.024195,True
7.520000,EP-001,transport,0.002022,-0.080725,-0.172443,-0.202502,-0.124673,0.056678,0.578234,0.111101,0.630110,0.052855,1.077617,0.180000,0.023973,True
7.540000,EP-001,transport,0.002802,-0.081112,-0.174121,-0.203620,-0.124698,0.060930,0.578348,0.111798,0.630392,0.039181,0.800971,0.180000,0.025314,True
7.560000,EP-001,transport,-0.002883,-0.083017,-0.175212,-0.203090,-0.123951,0.061433,0.578837,0.112709,0.630896,0.058647,1.071810,0.180000,0.024413,True
7.580000,EP-001,transport,-0.000530,-0.080903,-0.177547,-0.205264,-0.123954,0.062297,0.578720,0.113419,0.631065,0.037227,1.222626,0.180000,0.026268,True
7.600000,EP-001,transport,0.002490,-0.085030,-0.176514,-0.204255,-0.125602,0.063523,0.579066,0.113927,0.631310,0.034989,1.249047,0.180000,0.025241,True
7.620000,EP-001,transport,-0.006198,-0.085393,-0.178420,-0.207221,-0.120431,0.067121,0.579180,0.114583,0.631372,0.033935,1.019723,0.180000,0.024802,True
7.640000,EP-001,transport,-0.002340,-0.088771,-0.177900,-0.205316,-0.119515,0.066620,0.579263,0.115419,0.631847,0.046088,0.801294,0.180000,0.026021,True
7.660000,EP-001,transport,-0.008398,-0.089191,-0.183405,-0.206548,-0.120510,0.071485,0.579486,0.116376,0.631872,0.049614,0.756759,0.180000,0.023832,True
7.680000,EP-001,transport,-0.006393,-0.090824,-0.180185,-0.207955,-0.119130,0.072800,0.579892,0.117007,0.632335,0.045972,0.661263,0.180000,0.026021,True
7.700000,EP-001,transport,-0.005676,-0.093216,-0.183301,-0.206927,-0.117534,0.072171,0.580214,0.117664,0.632390,0.036196,0.844927,0.180000,0.024321,True
7.720000,EP-001,transport,-0.007058,-0.092121,-0.184681,-0.206645,-0.118503,0.077155,0.580595,0.117944,0.633001,0.039505,1.086533,0.180000,0.025822,True
7.740000,EP-001,transport,-0.011824,-0.097469,-0.186884,-0.207880,-0.115073,0.080243,0.580666,0.118470,0.632804,0.027770,0.748307,0.180000,0.024357,True
7.760000,EP-001,transport,-0.013591,-0.095496,-0.188134,-0.205950,-0.114137,0.080761,0.581147,0.119388,0.633388,0.059635,0.715812,0.180000,0.024078,True
7.780000,EP-001,transport,-0.014974,-0.093910,-0.190375,-0.208654,-0.112991,0.080339,0.581630,0.120023,0.633570,0.038265,0.606394,0.180000,0.023144,True
7.800000,EP-001,transport,-0.012919,-0.100715,-0.188007,-0.206542,-0.111941,0.083394,0.582320,0.120555,0.633489,0.042049,1.061619,0.180000,0.025100,True
7.820000,EP-001,transport,-0.015758,-0.100925,-0.190890,-0.207137,-0.115196,0.087539,0.582190,0.121254,0.633899,0.040851,0.825925,0.180000,0.025556,True
7.840000,EP-001,transport,-0.016341,-0.104850,-0.190702,-0.209381,-0.110618,0.086280,0.583101,0.121713,0.634324,0.054795,0.442509,0.180000,0.023601,True
7.860000,EP-001,transport,-0.017140,-0.104022,-0.191739,-0.206647,-0.111081,0.089647,0.583475,0.122079,0.634506,0.025931,1.209038,0.180000,0.026892,True
7.880000,EP-001,transport,-0.018091,-0.108128,-0.194926,-0.211025,-0.107786,0.093912,0.584169,0.122626,0.634387,0.045419,1.195904,0.180000,0.025032,True
7.900000,EP-001,transport,-0.019082,-0.106029,-0.195724,-0.208483,-0.106877,0.093726,0.584607,0.123262,0.634737,0.042870,0.905069,0.180000,0.023876,True
7.920000,EP-001,transport,-0.020879,-0.109236,-0.197069,-0.209413,-0.106240,0.095253,0.585341,0.123716,0.634868,0.042853,0.803337,0.180000,0.027076,True
7.940000,EP-001,transport,-0.024652,-0.112798,-0.196188,-0.208617,-0.106575,0.099326,0.586155,0.124139,0.635094,0.045235,0.895437,0.180000,0.024623,True
7.960000,EP-001,transport,-0.021241,-0.113453,-0.198703,-0.212271,-0.101263,0.102520,0.586635,0.124918,0.635344,0.048108,0.649570,0.180000,0.026560,True
7.980000,EP-001,transport,-0.028724,-0.115394,-0.199813,-0.211931,-0.104492,0.102667,0.587336,0.124947,0.635843,0.042680,1.196457,0.180000,0.022119,True
8.000000,EP-001,transport,-0.023933,-0.114902,-0.200144,-0.211606,-0.104936,0.102042,0.588044,0.125395,0.635837,0.042722,1.309401,0.180000,0.027276,True
8.020000,EP-001,transport,-0.027873,-0.114656,-0.202491,-0.210550,-0.100892,0.103596,0.588620,0.125600,0.635990,0.032730,1.215759,0.180000,0.025239,True
8.040000,EP-001,transport,-0.028448,-0.118053,-0.200458,-0.210640,-0.103448,0.107636,0.589584,0.126049,0.636171,0.053697,1.001328,0.180000,0.025036,True
8.060000,EP-001,transport,-0.030120,-0.120731,-0.206056,-0.210914,-0.097367,0.107273,0.590268,0.126516,0.636482,0.044102,1.008160,0.180000,0.025373,True
8.080000,EP-001,transport,-0.031075,-0.121695,-0.203916,-0.211489,-0.097652,0.111861,0.591000,0.126840,0.636673,0.041979,1.101310,0.180000,0.023841,True
8.100000,EP-001,transport,-0.031739,-0.121725,-0.204818,-0.212302,-0.096113,0.115352,0.591963,0.127030,0.636665,0.048893,1.441459,0.180000,0.025998,True
8.120000,EP-001,transport,-0.033313,-0.127102,-0.209758,-0.213423,-0.095448,0.111953,0.592805,0.127393,0.637135,0.049610,0.749253,0.180000,0.025493,True
8.140000,EP-001,transport,-0.035727,-0.123971,-0.207865,-0.212177,-0.095313,0.117690,0.593847,0.127605,0.637010,0.054196,0.979055,0.180000,0.025369,True
8.160000,EP-001,transport,-0.033994,-0.125725,-0.209846,-0.210895,-0.096779,0.120440,0.594645,0.127559,0.637285,0.042630,0.803447,0.180000,0.024446,True
8.180000,EP-001,transport,-0.037327,-0.131569,-0.210062,-0.210295,-0.094600,0.121126,0.595510,0.127577,0.637548,0.044727,0.669461,0.180000,0.023829,True
8.200000,EP-001,transport,-0.035633,-0.127486,-0.214265,-0.212640,-0.091751,0.124529,0.596768,0.128624,0.637873,0.083999,1.117294,0.180000,0.025407,True
8.220000,EP-001,transport,-0.039067,-0.133263,-0.213185,-0.210417,-0.091768,0.126687,0.597677,0.128594,0.637798,0.045298,1.356068,0.180000,0.025883,True
8.240000,EP-001,transport,-0.041088,-0.132562,-0.216102,-0.214071,-0.089783,0.129515,0.598717,0.128636,0.638043,0.053103,0.756770,0.180000,0.025176,True
8.260000,EP-001,transport,-0.040566,-0.131898,-0.216204,-0.211017,-0.090213,0.134008,0.599634,0.128542,0.638331,0.049124,1.346926,0.180000,0.024825,True
8.280000,EP-001,transport,-0.041082,-0.137666,-0.214645,-0.213824,-0.089220,0.132405,0.600558,0.128752,0.638415,0.046234,1.275537,0.180000,0.024492,True
8.300000,EP-001,transport,-0.044994,-0.139451,-0.218038,-0.211926,-0.086450,0.132558,0.601560,0.129272,0.638637,0.055874,1.235426,0.180000,0.025771,True
8.320000,EP-001,transport,-0.045229,-0.139797,-0.222269,-0.213738,-0.084629,0.134364,0.602643,0.128759,0.638787,0.060255,1.504768,0.180000,0.026533,True
8.340000,EP-001,transport,-0.043859,-0.141199,-0.222037,-0.213797,-0.084554,0.136042,0.603902,0.129221,0.638852,0.065814,0.957193,0.180000,0.024871,True
8.360000,EP-001,transport,-0.048694,-0.141207,-0.222690,-0.213201,-0.084834,0.140986,0.604863,0.129476,0.639052,0.051639,1.614533,0.180000,0.024147,True
8.380000,EP-001,transport,-0.049669,-0.143251,-0.220490,-0.210332,-0.084670,0.142424,0.605721,0.129429,0.639241,0.043243,1.081432,0.180000,0.027578,True
8.400000,EP-001,transport,-0.049343,-0.144656,-0.224088,-0.213405,-0.077994,0.144611,0.607044,0.129567,0.639279,0.064778,1.355215,0.180000,0.023421,True
8.420000,EP-001,transport,-0.052615,-0.146080,-0.226397,-0.211513,-0.081498,0.146206,0.607951,0.129465,0.639624,0.048408,0.791545,0.180000,0.025296,True
8.440000,EP-001,transport,-0.055690,-0.147065,-0.223400,-0.212187,-0.079890,0.150318,0.609309,0.129860,0.639342,0.069836,1.519894,0.180000,0.024922,True
8.460000,EP-001,transport,-0.055697,-0.149535,-0.225706,-0.211950,-0.078460,0.151558,0.610228,0.129350,0.639616,0.055755,1.277577,0.180000,0.026383,True
8.480000,EP-001,transport,-0.053837,-0.149163,-0.226567,-0.211904,-0.074823,0.153433,0.611348,0.129289,0.640044,0.059990,1.134452,0.180000,0.024886,True
8.500000,EP-001,transport,-0.054620,-0.151104,-0.229272,-0.211400,-0.076048,0.152870,0.612686,0.129510,0.640064,0.068525,1.027996,0.180000,0.023311,True
8.520000,EP-001,transport,-0.055918,-0.154090,-0.226917,-0.214036,-0.072869,0.155408,0.613788,0.129645,0.640075,0.056049,1.397436,0.180000,0.023855,True
8.540000,EP-001,transport,-0.057427,-0.151169,-0.230221,-0.212148,-0.071997,0.155921,0.614681,0.129372,0.640336,0.048692,1.738243,0.180000,0.025140,True
8.560000,EP-001,transport,-0.061069,-0.157336,-0.233969,-0.211630,-0.072881,0.158906,0.616170,0.129475,0.640558,0.074424,1.539807,0.180000,0.025003,True
8.580000,EP-001,transport,-0.059411,-0.155687,-0.233679,-0.212918,-0.069685,0.162021,0.617506,0.129164,0.640495,0.069496,1.321361,0.180000,0.024343,True
8.600000,EP-001,transport,-0.059907,-0.159376,-0.234192,-0.211450,-0.070470,0.162031,0.618079,0.128980,0.640787,0.033089,1.228364,0.180000,0.024448,True
8.620000,EP-001,transport,-0.063891,-0.159100,-0.234120,-0.213371,-0.067615,0.164913,0.619686,0.129271,0.640811,0.080913,1.176211,0.180000,0.023415,True
8.640000,EP-001,transport,-0.062642,-0.160268,-0.233674,-0.210700,-0.064991,0.170927,0.620413,0.129189,0.640942,0.035127,1.404858,0.180000,0.023498,True
8.660000,EP-001,transport,-0.065817,-0.161162,-0.236846,-0.212674,-0.065151,0.169587,0.621537,0.129066,0.641075,0.058197,1.074631,0.180000,0.024378,True
8.680000,EP-001,transport,-0.066193,-0.161713,-0.237585,-0.211926,-0.064855,0.169586,0.622667,0.128643,0.641342,0.061571,1.446679,0.180000,0.024316,True
8.700000,EP-001,transport,-0.067140,-0.166586,-0.234298,-0.210216,-0.062817,0.171963,0.623547,0.128399,0.641199,0.045824,1.887406,0.180000,0.024882,True
8.720000,EP-001,transport,-0.071135,-0.162322,-0.238393,-0.209644,-0.061159,0.175710,0.625015,0.128252,0.641412,0.072592,1.591862,0.180000,0.023812,True
8.740000,EP-001,transport,-0.067923,-0.167480,-0.240216,-0.211904,-0.059065,0.179106,0.625934,0.128240,0.641656,0.048548,1.594227,0.180000,0.026643,True
8.760000,EP-001,transport,-0.072621,-0.170743,-0.240272,-0.211839,-0.061647,0.179686,0.626771,0.128200,0.641550,0.042141,1.498427,0.180000,0.023221,True
8.780000,EP-001,transport,-0.072706,-0.172973,-0.243090,-0.209275,-0.059646,0.183118,0.627848,0.128021,0.641624,0.055743,1.895956,0.180000,0.025928,True
8.800000,EP-001,transport,-0.074513,-0.168694,-0.241293,-0.214763,-0.054836,0.184265,0.628648,0.127554,0.641998,0.049925,1.902835,0.180000,0.025602,True
8.820000,EP-001,transport,-0.074304,-0.171156,-0.241519,-0.208377,-0.054393,0.184091,0.629788,0.127616,0.642044,0.056297,2.153970,0.180000,0.026671,True
8.840000,EP-001,transport,-0.075564,-0.175088,-0.244714,-0.208237,-0.052848,0.189321,0.630924,0.127402,0.642139,0.058562,1.589672,0.180000,0.026467,True
8.860000,EP-001,transport,-0.077401,-0.175279,-0.243199,-0.211480,-0.051186,0.189054,0.631445,0.127220,0.642285,0.026997,1.503103,0.180000,0.023682,True
8.880000,EP-001,transport,-0.076534,-0.175811,-0.245991,-0.207942,-0.050377,0.194570,0.632532,0.127005,0.642262,0.053835,1.675246,0.180000,0.025411,True
8.900000,EP-001,transport,-0.079454,-0.179055,-0.245969,-0.208921,-0.049432,0.192806,0.633488,0.126776,0.642836,0.056898,1.530588,0.180000,0.025834,True
8.920000,EP-001,transport,-0.081701,-0.181232,-0.248352,-0.208534,-0.047216,0.195456,0.634466,0.126689,0.642475,0.053043,1.891746,0.180000,0.026022,True
8.940000,EP-001,transport,-0.086646,-0.182011,-0.249271,-0.212349,-0.044999,0.196822,0.635325,0.126410,0.642647,0.047135,1.815383,0.180000,0.025582,True
8.960000,EP-001,transport,-0.083975,-0.182042,-0.251142,-0.209406,-0.044088,0.199213,0.635840,0.126213,0.642632,0.027473,1.725550,0.180000,0.024467,True
8.980000,EP-001,transport,-0.085215,-0.184663,-0.249379,-0.208692,-0.043161,0.202280,0.636552,0.125861,0.642856,0.041182,1.983386,0.180000,0.026386,True
9.000000,EP-001,transport,-0.087314,-0.187947,-0.250942,-0.208725,-0.043328,0.203272,0.637455,0.125807,0.643190,0.048440,2.309653,0.180000,0.024935,True
9.020000,EP-001,transport,-0.088526,-0.186268,-0.251696,-0.208398,-0.040015,0.207315,0.638026,0.125512,0.643109,0.032181,2.259334,0.180000,0.024557,True
9.040000,EP-001,transport,-0.087575,-0.191432,-0.253802,-0.207944,-0.040659,0.208130,0.638694,0.124994,0.643276,0.042582,1.912970,0.180000,0.025252,True
9.060000,EP-001,transport,-0.088128,-0.191293,-0.254645,-0.211415,-0.038510,0.211841,0.639529,0.125165,0.643244,0.043178,2.129414,0.180000,0.024602,True
9.080000,EP-001,transport,-0.088085,-0.189597,-0.254618,-0.207179,-0.035854,0.211512,0.640213,0.124834,0.643615,0.041789,2.237953,0.180000,0.024375,True
9.100000,EP-001,transport,-0.090446,-0.192482,-0.253734,-0.207569,-0.034459,0.215316,0.640558,0.124795,0.643512,0.017879,2.365803,0.180000,0.025189,True
9.120000,EP-001,transport,-0.094454,-0.193837,-0.254748,-0.206338,-0.031562,0.217135,0.641011,0.124415,0.643436,0.031078,2.113831,0.180000,0.027772,True
9.140000,EP-001,transport,-0.094242,-0.195377,-0.256977,-0.206583,-0.030421,0.217050,0.641613,0.124209,0.643770,0.036131,1.879584,0.180000,0.025397,True
9.160000,EP-001,transport,-0.097907,-0.195299,-0.256258,-0.205496,-0.029543,0.223055,0.641694,0.124042,0.643723,0.009067,2.366634,0.180000,0.025151,True
9.180000,EP-001,transport,-0.096001,-0.198298,-0.254799,-0.204703,-0.029280,0.223450,0.642389,0.123798,0.643930,0.038937,2.027765,0.180000,0.024606,True
9.200000,EP-001,transport,-0.097797,-0.202546,-0.258007,-0.202131,-0.027346,0.223928,0.642609,0.123526,0.643962,0.017480,2.225504,0.180000,0.025430,True
9.220000,EP-001,transport,-0.100487,-0.200512,-0.255855,-0.205553,-0.026207,0.224744,0.643466,0.123120,0.644064,0.048388,2.282875,0.180000,0.023855,True
9.240000,EP-001,transport,-0.100968,-0.206918,-0.258951,-0.201463,-0.021790,0.226858,0.643518,0.123465,0.644134,0.016951,2.644967,0.180000,0.025570,True
9.260000,EP-001,transport,-0.102424,-0.206687,-0.258310,-0.203886,-0.022188,0.228655,0.643695,0.122756,0.644094,0.035823,2.283601,0.180000,0.025348,True
9.280000,EP-001,transport,-0.104243,-0.202436,-0.261798,-0.204421,-0.022336,0.231274,0.643872,0.122751,0.644105,0.007405,2.489254,0.180000,0.025161,True
9.300000,EP-001,transport,-0.102548,-0.204589,-0.259934,-0.204804,-0.021122,0.231057,0.643713,0.122715,0.644485,0.021806,2.411487,0.180000,0.025560,True
9.320000,EP-001,transport,-0.101113,-0.208210,-0.264153,-0.200970,-0.016521,0.234777,0.644348,0.122494,0.644432,0.035174,2.345360,0.180000,0.024868,True
9.340000,EP-001,transport,-0.105777,-0.208925,-0.262685,-0.204014,-0.018136,0.235698,0.644599,0.122348,0.644563,0.017137,2.772180,0.180000,0.025754,True
9.360000,EP-001,transport,-0.106668,-0.209987,-0.264218,-0.199990,-0.014782,0.241042,0.644322,0.122211,0.644552,0.015839,2.423137,0.180000,0.025623,True
9.380000,EP-001,transport,-0.109258,-0.209887,-0.267368,-0.200351,-0.013536,0.241596,0.644573,0.122125,0.644442,0.014579,2.712409,0.180000,0.025645,True
9.400000,EP-001,transport,-0.111267,-0.213910,-0.267070,-0.201215,-0.010691,0.244868,0.644582,0.121827,0.644608,0.016831,2.684796,0.180000,0.025075,True
9.420000,EP-001,transport,-0.108695,-0.215374,-0.263966,-0.200870,-0.012031,0.247851,0.644208,0.122074,0.645005,0.030498,2.111839,0.180000,0.025977,True
9.440000,EP-001,transport,-0.113783,-0.216280,-0.265562,-0.198681,-0.008506,0.246872,0.644511,0.121348,0.644817,0.040226,2.192946,0.180000,0.024885,True
9.460000,EP-001,transport,-0.113886,-0.216395,-0.264980,-0.198660,-0.007344,0.251091,0.644469,0.121405,0.644939,0.006027,1.796267,0.180000,0.026394,True
9.480000,EP-001,transport,-0.115906,-0.217489,-0.267246,-0.197280,-0.004910,0.250508,0.644161,0.121197,0.644881,0.019853,2.785114,0.180000,0.024957,True
9.500000,EP-001,place,-0.116089,-0.219781,-0.272503,-0.197845,-0.002520,0.252779,0.643943,0.121058,0.645065,0.016758,2.798467,0.180000,0.026383,True
9.520000,EP-001,place,-0.118298,-0.219290,-0.268374,-0.198060,-0.002820,0.252277,0.643864,0.121081,0.645154,0.006608,2.601812,0.180000,0.025334,True
9.540000,EP-001,place,-0.118584,-0.223300,-0.270196,-0.195973,-0.001737,0.255712,0.643275,0.121165,0.645242,0.029999,2.623935,0.180000,0.025041,True
9.560000,EP-001,place,-0.122624,-0.223120,-0.270682,-0.197966,0.001467,0.259623,0.643249,0.120757,0.645328,0.020491,2.702343,0.180000,0.024041,True
9.580000,EP-001,place,-0.122126,-0.225332,-0.271177,-0.194400,-0.000343,0.260080,0.643091,0.120685,0.645328,0.008793,2.636246,0.180000,0.025722,True
9.600000,EP-001,place,-0.121170,-0.227078,-0.272219,-0.194990,0.003605,0.260625,0.642414,0.120838,0.645402,0.035109,2.821805,0.180000,0.025442,True
9.620000,EP-001,place,-0.126028,-0.224913,-0.273069,-0.196128,0.003458,0.263063,0.642388,0.120760,0.645534,0.006639,2.841778,0.180000,0.025123,True
9.640000,EP-001,place,-0.126732,-0.228541,-0.270317,-0.195388,0.004715,0.263794,0.641787,0.120932,0.645639,0.031228,2.621792,0.180000,0.025494,True
9.660000,EP-001,place,-0.124928,-0.230847,-0.272053,-0.193770,0.005759,0.265742,0.641122,0.120764,0.645647,0.033259,3.287394,0.180000,0.025211,True
9.680000,EP-001,place,-0.127631,-0.230490,-0.274238,-0.195354,0.007249,0.266431,0.640977,0.120626,0.645936,0.018699,3.188912,0.180000,0.024135,True
9.700000,EP-001,place,-0.127889,-0.233333,-0.274417,-0.190014,0.012534,0.272116,0.640380,0.120536,0.645814,0.029402,2.809540,0.920000,0.140000,True
9.720000,EP-001,place,-0.134103,-0.232122,-0.272840,-0.190009,0.014208,0.273928,0.640085,0.120623,0.645869,0.014453,3.546385,0.920000,0.140000,True
9.740000,EP-001,place,-0.131785,-0.232969,-0.274239,-0.192402,0.014682,0.273938,0.639349,0.120582,0.645832,0.035978,3.640211,0.920000,0.140000,True
9.760000,EP-001,place,-0.135173,-0.233931,-0.275018,-0.190311,0.017680,0.273900,0.639151,0.120433,0.646093,0.018195,3.316412,0.920000,0.140000,True
9.780000,EP-001,place,-0.136603,-0.238357,-0.277643,-0.186992,0.017814,0.277385,0.638331,0.120680,0.645905,0.042899,3.317419,0.920000,0.140000,True
9.800000,EP-001,place,-0.135156,-0.238182,-0.276939,-0.188227,0.018662,0.282592,0.637925,0.120705,0.645891,0.022080,2.833563,0.920000,0.140000,True
9.820000,EP-001,place,-0.135254,-0.236348,-0.278466,-0.189639,0.019426,0.279358,0.637197,0.120762,0.646025,0.037889,2.920896,0.920000,0.140000,True
9.840000,EP-001,place,-0.140534,-0.240721,-0.280106,-0.190636,0.023799,0.282404,0.636636,0.120811,0.646273,0.028318,2.578304,0.920000,0.140000,True
9.860000,EP-001,place,-0.141210,-0.239664,-0.276348,-0.189182,0.025506,0.284249,0.636248,0.121219,0.646116,0.029435,2.913977,0.920000,0.140000,True
9.880000,EP-001,place,-0.141684,-0.240470,-0.278632,-0.184307,0.027811,0.287958,0.635475,0.121172,0.646463,0.042805,3.313754,0.920000,0.140000,True
9.900000,EP-001,place,-0.142256,-0.246132,-0.279200,-0.184885,0.026404,0.286617,0.634745,0.121323,0.646359,0.036332,2.935251,0.920000,0.140000,True
9.920000,EP-001,place,-0.145324,-0.243355,-0.280455,-0.186562,0.028819,0.290710,0.633970,0.121219,0.646233,0.039536,2.588529,0.920000,0.140000,True
9.940000,EP-001,place,-0.141192,-0.245252,-0.278304,-0.182856,0.028893,0.290843,0.633677,0.121297,0.646439,0.018419,3.513521,0.920000,0.140000,True
9.960000,EP-001,place,-0.144964,-0.246253,-0.276716,-0.183698,0.034245,0.293312,0.632952,0.121560,0.646732,0.040596,3.621985,0.920000,0.140000,True
9.980000,EP-001,place,-0.147650,-0.246192,-0.279385,-0.183400,0.035259,0.293775,0.632127,0.121803,0.646466,0.044886,3.500810,0.920000,0.140000,True
10.000000,EP-001,place,-0.149150,-0.249260,-0.279267,-0.182428,0.036634,0.298159,0.631544,0.121892,0.646461,0.029811,2.654443,0.920000,0.140000,True
10.020000,EP-001,place,-0.146139,-0.251022,-0.282919,-0.181578,0.037518,0.298367,0.630683,0.122104,0.646729,0.045786,3.317510,0.920000,0.140000,True
10.040000,EP-001,place,-0.147526,-0.251378,-0.281169,-0.177646,0.038995,0.299958,0.630016,0.122478,0.646873,0.038844,2.856996,0.920000,0.140000,True
10.060000,EP-001,place,-0.152892,-0.254013,-0.281478,-0.180732,0.040348,0.304240,0.629376,0.122592,0.646886,0.031282,3.052327,0.920000,0.140000,True
10.080000,EP-001,place,-0.152897,-0.253889,-0.279935,-0.179137,0.044182,0.304837,0.628888,0.122624,0.646772,0.025732,3.288263,0.920000,0.140000,True
10.100000,EP-001,place,-0.152789,-0.258895,-0.282512,-0.175767,0.043310,0.309598,0.628219,0.122944,0.646880,0.036816,3.521741,0.920000,0.140000,True
10.120000,EP-001,place,-0.157728,-0.254312,-0.284289,-0.174703,0.047247,0.308385,0.627409,0.123158,0.646943,0.043218,2.917406,0.920000,0.140000,True
10.140000,EP-001,place,-0.158093,-0.258930,-0.283311,-0.177564,0.048041,0.309584,0.626985,0.123543,0.647090,0.031626,2.993659,0.920000,0.140000,True
10.160000,EP-001,place,-0.156441,-0.258434,-0.284193,-0.172225,0.047816,0.311346,0.626355,0.123612,0.647251,0.034366,2.735072,0.920000,0.140000,True
10.180000,EP-001,place,-0.160782,-0.259926,-0.281694,-0.172816,0.048854,0.317006,0.625637,0.124042,0.647024,0.042879,3.087996,0.920000,0.140000,True
10.200000,EP-001,place,-0.161652,-0.261382,-0.283178,-0.175805,0.051533,0.316422,0.625153,0.124465,0.647236,0.034281,2.808832,0.920000,0.140000,True
10.220000,EP-001,place,-0.164294,-0.262504,-0.283967,-0.170074,0.054333,0.315790,0.624354,0.124669,0.647082,0.041686,2.938174,0.920000,0.140000,True
10.240000,EP-001,place,-0.164676,-0.263704,-0.284505,-0.174082,0.054174,0.318372,0.623794,0.124841,0.647236,0.030706,3.284702,0.920000,0.140000,True
10.260000,EP-001,place,-0.163763,-0.267440,-0.283795,-0.170010,0.058719,0.318774,0.623313,0.125209,0.647094,0.030264,3.061615,0.920000,0.140000,True
10.280000,EP-001,place,-0.167300,-0.266884,-0.286075,-0.171849,0.061181,0.322212,0.622685,0.125654,0.647155,0.037539,3.091501,0.920000,0.140000,True
10.300000,EP-001,place,-0.169293,-0.265329,-0.286986,-0.171896,0.062007,0.322102,0.622277,0.126050,0.647337,0.029816,3.128410,0.920000,0.140000,True
10.320000,EP-001,place,-0.169538,-0.269837,-0.288691,-0.167096,0.060404,0.323660,0.621457,0.126456,0.647219,0.045263,3.265902,0.920000,0.140000,True
10.340000,EP-001,place,-0.167187,-0.270992,-0.284341,-0.166828,0.061140,0.326803,0.621368,0.126669,0.647472,0.018371,3.419530,0.920000,0.140000,True
10.360000,EP-001,place,-0.170855,-0.267230,-0.285606,-0.166666,0.067624,0.329805,0.620569,0.126863,0.647338,0.042392,2.693699,0.920000,0.140000,True
10.380000,EP-001,place,-0.173232,-0.269718,-0.285636,-0.165338,0.070261,0.330669,0.620216,0.127652,0.647452,0.043911,2.557521,0.920000,0.140000,True
10.400000,EP-001,place,-0.173421,-0.270263,-0.286762,-0.164846,0.069177,0.332118,0.619614,0.127869,0.647470,0.031846,3.141434,0.920000,0.140000,True
10.420000,EP-001,place,-0.174249,-0.273764,-0.284549,-0.164142,0.072263,0.332655,0.619516,0.128279,0.647477,0.020878,3.178746,0.920000,0.140000,True
10.440000,EP-001,place,-0.175998,-0.274412,-0.288723,-0.164401,0.072809,0.330540,0.619249,0.128665,0.647569,0.024852,3.360549,0.920000,0.140000,True
10.460000,EP-001,place,-0.180169,-0.274732,-0.285645,-0.160992,0.073986,0.335517,0.618879,0.128871,0.647718,0.022546,3.175566,0.920000,0.140000,True
10.480000,EP-001,place,-0.178259,-0.276109,-0.288907,-0.160865,0.078131,0.337030,0.618531,0.129393,0.647997,0.034295,3.426152,0.920000,0.140000,True
10.500000,EP-001,place,-0.180296,-0.278171,-0.288502,-0.160291,0.077567,0.339721,0.617890,0.129899,0.647516,0.049259,3.067904,0.920000,0.140000,True
10.520000,EP-001,place,-0.179966,-0.281340,-0.289823,-0.159796,0.081375,0.343123,0.617754,0.130442,0.647729,0.030038,2.729033,0.920000,0.140000,True
10.540000,EP-001,place,-0.184542,-0.281278,-0.288027,-0.158383,0.084397,0.343173,0.617580,0.130727,0.647706,0.016478,3.171508,0.920000,0.140000,True
10.560000,EP-001,place,-0.182183,-0.283516,-0.288754,-0.159228,0.083391,0.340938,0.617318,0.130686,0.647651,0.013285,2.621199,0.920000,0.140000,True
10.580000,EP-001,place,-0.185776,-0.279844,-0.287819,-0.156431,0.088085,0.345139,0.617468,0.131558,0.647827,0.046395,2.660043,0.920000,0.140000,True
10.600000,EP-001,place,-0.188868,-0.283911,-0.289484,-0.156426,0.085088,0.346274,0.617200,0.132092,0.647720,0.029817,2.947881,0.920000,0.140000,True
10.620000,EP-001,place,-0.185546,-0.284611,-0.290824,-0.152035,0.090136,0.349234,0.617075,0.132681,0.647848,0.030307,2.741284,0.920000,0.140000,True
10.640000,EP-001,place,-0.189595,-0.284932,-0.288005,-0.154336,0.090522,0.349563,0.617090,0.133045,0.648037,0.021621,3.054537,0.920000,0.140000,True
10.660000,EP-001,place,-0.189514,-0.286367,-0.287037,-0.152558,0.096058,0.348265,0.616847,0.133766,0.647677,0.043257,2.665731,0.920000,0.140000,True
10.680000,EP-001,place,-0.191584,-0.286606,-0.287967,-0.150824,0.094045,0.351277,0.616859,0.134063,0.647980,0.022600,3.262151,0.920000,0.140000,True
10.700000,EP-001,place,-0.190951,-0.289385,-0.289247,-0.148616,0.094539,0.353640,0.616902,0.134509,0.648033,0.021730,2.438839,0.920000,0.140000,True
10.720000,EP-001,place,-0.192194,-0.291773,-0.288645,-0.148058,0.099877,0.352502,0.617182,0.134908,0.647895,0.025769,2.901164,0.920000,0.140000,True
10.740000,EP-001,place,-0.193438,-0.287765,-0.291877,-0.147657,0.096922,0.356872,0.617266,0.135020,0.648102,0.011898,2.548979,0.920000,0.140000,True
10.760000,EP-001,place,-0.195303,-0.292536,-0.289899,-0.143396,0.101599,0.358081,0.617442,0.135815,0.648110,0.041145,3.052362,0.920000,0.140000,True
10.780000,EP-001,place,-0.200081,-0.293168,-0.287715,-0.145555,0.101545,0.361578,0.617691,0.136239,0.648054,0.023148,2.468700,0.920000,0.140000,True
10.800000,EP-001,place,-0.201441,-0.294647,-0.288817,-0.143964,0.106479,0.361214,0.617534,0.136531,0.648269,0.019558,2.820137,0.920000,0.140000,True
10.820000,EP-001,place,-0.199856,-0.295253,-0.290829,-0.139286,0.106011,0.361873,0.617894,0.137157,0.647994,0.039739,1.689737,0.920000,0.140000,True
10.840000,EP-001,place,-0.202857,-0.295363,-0.288296,-0.143575,0.109185,0.364042,0.618274,0.137590,0.648255,0.031819,2.346189,0.920000,0.140000,True
10.860000,EP-001,place,-0.201969,-0.295223,-0.289803,-0.139709,0.109592,0.365666,0.618356,0.137914,0.648177,0.014730,2.991516,0.920000,0.140000,True
10.880000,EP-001,place,-0.203679,-0.298943,-0.288523,-0.139367,0.109749,0.368508,0.618816,0.138419,0.648105,0.035376,2.554279,0.920000,0.140000,True
10.900000,EP-001,place,-0.207323,-0.297853,-0.291737,-0.140863,0.109924,0.366978,0.619418,0.138850,0.648236,0.037922,2.496710,0.920000,0.140000,True
10.920000,EP-001,place,-0.208007,-0.300280,-0.290413,-0.138701,0.117540,0.366389,0.619832,0.139372,0.648241,0.033037,2.694542,0.920000,0.140000,True
10.940000,EP-001,place,-0.209409,-0.298368,-0.289123,-0.135397,0.116966,0.375345,0.620258,0.139718,0.648406,0.028691,3.094624,0.920000,0.140000,True
10.960000,EP-001,place,-0.210290,-0.303027,-0.289136,-0.137652,0.116642,0.373676,0.620564,0.140304,0.648153,0.035039,2.079707,0.920000,0.140000,True
10.980000,EP-001,place,-0.210514,-0.301934,-0.288731,-0.134618,0.119635,0.373938,0.621015,0.140371,0.648334,0.025665,2.337457,0.920000,0.140000,True
11.000000,EP-001,place,-0.210424,-0.301932,-0.289539,-0.131795,0.123317,0.378885,0.621725,0.141047,0.648327,0.049020,2.201935,0.920000,0.140000,True
11.020000,EP-001,place,-0.210680,-0.306023,-0.289774,-0.132372,0.121362,0.374812,0.622052,0.141262,0.648594,0.022060,2.499638,0.920000,0.140000,True
11.040000,EP-001,place,-0.215423,-0.304705,-0.288713,-0.130449,0.128711,0.376661,0.622729,0.141862,0.648294,0.046783,2.073611,0.920000,0.140000,True
11.060000,EP-001,place,-0.216057,-0.305566,-0.288060,-0.130662,0.126694,0.378502,0.623473,0.142425,0.648579,0.050402,1.802745,0.920000,0.140000,True
11.080000,EP-001,place,-0.214102,-0.307917,-0.291554,-0.129410,0.128257,0.381208,0.623839,0.142757,0.648263,0.030440,1.783372,0.920000,0.140000,True
11.100000,EP-001,place,-0.216348,-0.307936,-0.289683,-0.128204,0.132461,0.381056,0.624445,0.143137,0.648538,0.039118,2.368062,0.920000,0.140000,True
11.120000,EP-001,place,-0.218595,-0.306997,-0.289415,-0.126612,0.132595,0.384217,0.625200,0.143556,0.648502,0.042417,2.210961,0.920000,0.140000,True
11.140000,EP-001,place,-0.223747,-0.309026,-0.288773,-0.123942,0.132523,0.383764,0.625977,0.144165,0.648585,0.050082,2.363046,0.920000,0.140000,True
11.160000,EP-001,place,-0.222965,-0.310919,-0.287385,-0.123556,0.137123,0.387525,0.626665,0.144139,0.648477,0.035880,1.640284,0.920000,0.140000,True
11.180000,EP-001,place,-0.222445,-0.311487,-0.290775,-0.119516,0.138162,0.387505,0.627340,0.144806,0.648348,0.047945,1.806350,0.920000,0.140000,True
11.200000,EP-001,place,-0.224822,-0.311366,-0.287861,-0.120404,0.140905,0.385517,0.628140,0.144804,0.648418,0.040927,1.876072,0.920000,0.140000,True
11.220000,EP-001,place,-0.222158,-0.310987,-0.291118,-0.119578,0.139579,0.389208,0.628573,0.145309,0.648781,0.039060,2.237770,0.920000,0.140000,True
11.240000,EP-001,place,-0.226276,-0.312572,-0.289510,-0.115407,0.141004,0.388737,0.629455,0.145743,0.648669,0.050499,2.093266,0.920000,0.140000,True
11.260000,EP-001,place,-0.227224,-0.313529,-0.289011,-0.117670,0.145351,0.391462,0.630392,0.145919,0.648560,0.048461,1.889156,0.920000,0.140000,True
11.280000,EP-001,place,-0.230557,-0.313115,-0.288473,-0.117456,0.145494,0.392861,0.631024,0.146396,0.648791,0.041701,1.623658,0.920000,0.140000,True
11.300000,EP-001,place,-0.231712,-0.318685,-0.288815,-0.114769,0.144652,0.397447,0.631768,0.146782,0.648613,0.041598,1.929529,0.920000,0.140000,True
11.320000,EP-001,place,-0.232378,-0.319362,-0.288490,-0.115355,0.148721,0.394854,0.632602,0.146790,0.648632,0.041443,1.711741,0.920000,0.140000,True
11.340000,EP-001,place,-0.233553,-0.321466,-0.288045,-0.111693,0.152257,0.393919,0.633467,0.147243,0.648594,0.049695,2.065319,0.920000,0.140000,True
11.360000,EP-001,place,-0.234194,-0.317581,-0.287743,-0.109153,0.151957,0.397679,0.634405,0.147472,0.648899,0.052360,2.276432,0.920000,0.140000,True
11.380000,EP-001,place,-0.234507,-0.323141,-0.289893,-0.108952,0.156674,0.396879,0.635110,0.147499,0.649012,0.035902,1.788675,0.920000,0.140000,True
11.400000,EP-001,place,-0.235946,-0.320553,-0.289018,-0.109221,0.155727,0.402555,0.636132,0.148012,0.648678,0.060680,1.409920,0.920000,0.140000,True
11.420000,EP-001,place,-0.236020,-0.320155,-0.287354,-0.107533,0.158051,0.401966,0.637187,0.148157,0.648846,0.053906,2.365921,0.920000,0.140000,True
11.440000,EP-001,place,-0.240816,-0.324219,-0.285680,-0.105297,0.157482,0.404382,0.637745,0.148702,0.648946,0.038375,1.845320,0.920000,0.140000,True
11.460000,EP-001,place,-0.239677,-0.323903,-0.284730,-0.102953,0.160426,0.402472,0.638791,0.148582,0.649100,0.053673,1.788617,0.920000,0.140000,True
11.480000,EP-001,place,-0.240861,-0.324093,-0.281718,-0.103992,0.163051,0.402569,0.639473,0.149167,0.648575,0.052493,1.641134,0.920000,0.140000,True
11.500000,EP-001,place,-0.240044,-0.323376,-0.285566,-0.102696,0.165904,0.405669,0.640087,0.149017,0.648896,0.034543,1.628874,0.920000,0.140000,True
11.520000,EP-001,place,-0.244006,-0.327559,-0.286639,-0.099135,0.167025,0.404186,0.641034,0.149560,0.648973,0.053897,1.578413,0.920000,0.140000,True
11.540000,EP-001,place,-0.244405,-0.325553,-0.284923,-0.099096,0.170037,0.405854,0.641736,0.149509,0.648734,0.037213,1.598092,0.920000,0.140000,True
11.560000,EP-001,place,-0.247358,-0.325748,-0.283889,-0.097573,0.166893,0.407201,0.642800,0.149641,0.648977,0.054442,1.075101,0.920000,0.140000,True
11.580000,EP-001,place,-0.246700,-0.327349,-0.284409,-0.096025,0.171883,0.409157,0.643302,0.149825,0.648967,0.027259,1.269133,0.920000,0.140000,True
11.600000,EP-001,place,-0.247958,-0.328081,-0.285901,-0.096549,0.173325,0.408067,0.644451,0.149956,0.649046,0.056624,1.418005,0.920000,0.140000,True
11.620000,EP-001,place,-0.250731,-0.327180,-0.284160,-0.094265,0.173672,0.408242,0.645104,0.150134,0.648904,0.035392,1.458770,0.920000,0.140000,True
11.640000,EP-001,place,-0.251660,-0.329477,-0.283755,-0.091105,0.176862,0.414549,0.645463,0.150273,0.649039,0.019786,1.446708,0.920000,0.140000,True
11.660000,EP-001,place,-0.252258,-0.330581,-0.285472,-0.091557,0.177497,0.412516,0.646616,0.150036,0.648931,0.059505,1.487234,0.920000,0.140000,True
11.680000,EP-001,place,-0.252544,-0.331783,-0.284839,-0.090249,0.180938,0.414026,0.647446,0.149961,0.649091,0.040882,0.828455,0.920000,0.140000,True
11.700000,EP-001,place,-0.256377,-0.331017,-0.280902,-0.088134,0.181461,0.416164,0.647790,0.149794,0.649052,0.020180,1.044889,0.920000,0.140000,True
11.720000,EP-001,place,-0.254504,-0.333154,-0.285671,-0.086621,0.184414,0.416864,0.648732,0.150169,0.649001,0.050954,1.105153,0.920000,0.140000,True
11.740000,EP-001,place,-0.257557,-0.332441,-0.281732,-0.082031,0.183970,0.416123,0.648968,0.150359,0.648891,0.018267,1.307313,0.920000,0.140000,True
11.760000,EP-001,place,-0.255381,-0.333981,-0.282006,-0.085631,0.188905,0.417355,0.649906,0.150305,0.649272,0.049064,1.193166,0.920000,0.140000,True
11.780000,EP-001,place,-0.257251,-0.333126,-0.279170,-0.082822,0.189268,0.421399,0.650226,0.150255,0.649221,0.014564,1.782343,0.920000,0.140000,True
11.800000,EP-001,place,-0.261282,-0.336715,-0.279946,-0.078629,0.193009,0.421748,0.651129,0.150160,0.649207,0.046157,1.096699,0.920000,0.140000,True
11.820000,EP-001,place,-0.262820,-0.336093,-0.281754,-0.080176,0.191798,0.421849,0.651344,0.150078,0.649035,0.015292,1.114370,0.920000,0.140000,True
11.840000,EP-001,place,-0.259344,-0.336358,-0.278183,-0.078252,0.192906,0.424115,0.651746,0.150078,0.649085,0.018469,0.726604,0.920000,0.140000,True
11.860000,EP-001,place,-0.263314,-0.336933,-0.280491,-0.079569,0.195515,0.419553,0.652701,0.150112,0.649340,0.049993,1.656153,0.920000,0.140000,True
11.880000,EP-001,place,-0.264604,-0.336515,-0.276265,-0.074535,0.196263,0.423474,0.653456,0.149709,0.649242,0.044054,1.147238,0.920000,0.140000,True
11.900000,EP-001,place,-0.267301,-0.338286,-0.276338,-0.073263,0.197051,0.423677,0.653465,0.149988,0.649063,0.018045,1.073752,0.920000,0.140000,True
11.920000,EP-001,place,-0.268049,-0.338168,-0.278493,-0.071911,0.200275,0.421981,0.654090,0.149552,0.649183,0.038716,0.907055,0.920000,0.140000,True
11.940000,EP-001,place,-0.267822,-0.337222,-0.276777,-0.071969,0.201793,0.426239,0.654361,0.149626,0.649206,0.012588,1.096196,0.920000,0.140000,True
11.960000,EP-001,place,-0.269298,-0.339546,-0.277204,-0.069711,0.202551,0.427499,0.654644,0.149420,0.649177,0.015608,0.957175,0.920000,0.140000,True
11.980000,EP-001,place,-0.272674,-0.343042,-0.278365,-0.068921,0.204581,0.427688,0.655099,0.149312,0.649100,0.025859,1.382377,0.920000,0.140000,True
0.000000,EP-002,approach,0.115442,0.205674,0.247848,0.228725,0.152018,0.039089,0.230961,-0.166013,0.484693,0.000287,1.730407,1.000000,0.160000,True
0.020000,EP-002,approach,0.116397,0.208932,0.247554,0.228593,0.151673,0.039320,0.231946,-0.165149,0.484639,0.000287,2.209241,1.000000,0.160000,True
0.040000,EP-002,approach,0.115107,0.209361,0.248349,0.224917,0.150193,0.035452,0.232888,-0.164749,0.484492,0.000287,2.361698,1.000000,0.160000,True
0.060000,EP-002,approach,0.119912,0.209398,0.249177,0.226559,0.149207,0.037411,0.233946,-0.164291,0.484653,0.000287,1.915629,1.000000,0.160000,True
0.080000,EP-002,approach,0.118714,0.208664,0.250914,0.226084,0.147669,0.034049,0.235211,-0.163790,0.484835,0.000287,2.363660,1.000000,0.160000,True
0.100000,EP-002,approach,0.120613,0.210365,0.246614,0.225985,0.148142,0.033714,0.235704,-0.163386,0.484721,0.000287,2.359197,1.000000,0.160000,True
0.120000,EP-002,approach,0.119607,0.210266,0.251852,0.222541,0.147851,0.030339,0.237031,-0.163161,0.484915,0.000287,2.032839,1.000000,0.160000,True
0.140000,EP-002,approach,0.122871,0.212801,0.248366,0.224433,0.142118,0.027320,0.238017,-0.162391,0.485064,0.000287,2.398503,1.000000,0.160000,True
0.160000,EP-002,approach,0.125628,0.212260,0.247589,0.224598,0.141914,0.027647,0.238705,-0.162059,0.485189,0.000287,2.019182,1.000000,0.160000,True
0.180000,EP-002,approach,0.123075,0.213069,0.248047,0.221735,0.141242,0.025704,0.239574,-0.161581,0.485236,0.064913,2.652847,1.000000,0.160000,True
0.200000,EP-002,approach,0.122845,0.212239,0.250690,0.220714,0.138949,0.023607,0.240661,-0.161250,0.485038,0.051977,2.021909,1.000000,0.160000,True
0.220000,EP-002,approach,0.125460,0.215829,0.249725,0.221476,0.136479,0.021338,0.241670,-0.160858,0.485423,0.058660,2.507841,1.000000,0.160000,True
0.240000,EP-002,approach,0.126410,0.211870,0.250751,0.221435,0.136607,0.021813,0.242696,-0.160279,0.485264,0.066434,2.225283,1.000000,0.160000,True
0.260000,EP-002,approach,0.128113,0.218635,0.247978,0.218784,0.132538,0.017147,0.243376,-0.159883,0.485455,0.031957,1.676994,1.000000,0.160000,True
0.280000,EP-002,approach,0.125793,0.214375,0.250793,0.219866,0.134370,0.013252,0.244335,-0.159603,0.485431,0.068097,2.289629,1.000000,0.160000,True
0.300000,EP-002,approach,0.130526,0.215478,0.248408,0.220325,0.130133,0.014242,0.244865,-0.159442,0.485715,0.061099,2.032647,1.000000,0.160000,True
0.320000,EP-002,approach,0.130376,0.216236,0.249349,0.217586,0.129377,0.011136,0.245619,-0.159035,0.485683,0.038302,2.518609,1.000000,0.160000,True
0.340000,EP-002,approach,0.130461,0.215338,0.247473,0.215939,0.128926,0.011111,0.246290,-0.158690,0.485802,0.049015,2.321615,1.000000,0.160000,True
0.360000,EP-002,approach,0.130026,0.219395,0.247951,0.216536,0.130541,0.009658,0.247152,-0.158027,0.485909,0.058503,2.384942,1.000000,0.160000,True
0.380000,EP-002,approach,0.133030,0.217427,0.247473,0.216707,0.128671,0.010039,0.248026,-0.157781,0.485936,0.056144,2.477158,1.000000,0.160000,True
0.400000,EP-002,approach,0.135214,0.217689,0.249756,0.215658,0.125769,0.005301,0.248842,-0.157520,0.485959,0.059253,2.717445,1.000000,0.160000,True
0.420000,EP-002,approach,0.135230,0.220993,0.249444,0.213175,0.125577,0.004288,0.249325,-0.157236,0.486284,0.040674,2.578014,1.000000,0.160000,True
0.440000,EP-002,approach,0.136124,0.220808,0.243097,0.213114,0.122956,0.002154,0.250328,-0.157019,0.486277,0.049982,2.507642,1.000000,0.160000,True
0.460000,EP-002,approach,0.136416,0.218062,0.248191,0.210263,0.119389,0.000591,0.250849,-0.156494,0.486389,0.030883,2.695802,1.000000,0.160000,True
0.480000,EP-002,approach,0.137648,0.219016,0.248028,0.210421,0.118916,-0.000446,0.251400,-0.156487,0.486190,0.041344,3.342672,1.000000,0.160000,True
0.500000,EP-002,approach,0.136117,0.221464,0.245769,0.208730,0.117427,-0.000521,0.251986,-0.156187,0.486255,0.037692,2.820263,1.000000,0.160000,True
0.520000,EP-002,approach,0.141157,0.222241,0.245775,0.207630,0.115215,-0.002787,0.252981,-0.155673,0.486768,0.054416,2.824176,1.000000,0.160000,True
0.540000,EP-002,approach,0.141375,0.223464,0.249193,0.207592,0.115574,-0.007034,0.253251,-0.155455,0.486753,0.044352,2.531808,1.000000,0.160000,True
0.560000,EP-002,approach,0.140361,0.222888,0.246785,0.205955,0.112477,-0.011651,0.253611,-0.155321,0.486565,0.042894,2.836643,1.000000,0.160000,True
0.580000,EP-002,approach,0.141681,0.225368,0.248453,0.205859,0.110646,-0.011602,0.254092,-0.155272,0.486912,0.032616,3.043830,1.000000,0.160000,True
0.600000,EP-002,approach,0.140441,0.225651,0.248168,0.204918,0.109855,-0.011116,0.254971,-0.155056,0.486972,0.049246,2.481211,1.000000,0.160000,True
0.620000,EP-002,approach,0.142057,0.225184,0.242823,0.202260,0.108627,-0.013616,0.255038,-0.154536,0.486949,0.037497,2.506630,1.000000,0.160000,True
0.640000,EP-002,approach,0.144777,0.225120,0.248669,0.202237,0.105285,-0.014056,0.255702,-0.154413,0.487114,0.029616,3.000209,1.000000,0.160000,True
0.660000,EP-002,approach,0.143991,0.227148,0.244221,0.202987,0.107215,-0.015266,0.256105,-0.154065,0.487474,0.032031,2.283702,1.000000,0.160000,True
0.680000,EP-002,approach,0.144207,0.227983,0.245231,0.200606,0.104974,-0.016670,0.255880,-0.154185,0.487287,0.060776,2.634576,1.000000,0.160000,True
0.700000,EP-002,approach,0.146213,0.226830,0.245635,0.202888,0.099974,-0.020729,0.256737,-0.153967,0.487529,0.020331,3.002918,1.000000,0.160000,True
0.720000,EP-002,approach,0.148384,0.226775,0.246323,0.202718,0.100262,-0.019962,0.256778,-0.153947,0.487488,0.021720,2.843088,1.000000,0.160000,True
0.740000,EP-002,approach,0.146775,0.228367,0.246090,0.199600,0.102759,-0.027288,0.256890,-0.153422,0.487512,0.029276,2.598564,1.000000,0.160000,True
0.760000,EP-002,approach,0.149818,0.226967,0.244702,0.197886,0.096148,-0.026175,0.257184,-0.153792,0.488073,0.044473,3.415579,1.000000,0.160000,True
0.780000,EP-002,approach,0.150802,0.228604,0.244606,0.196983,0.096918,-0.026320,0.257531,-0.153333,0.487983,0.027276,3.148407,1.000000,0.160000,True
0.800000,EP-002,approach,0.151676,0.229590,0.245311,0.193274,0.096515,-0.029751,0.257654,-0.153079,0.487963,0.034551,2.762321,1.000000,0.160000,True
0.820000,EP-002,approach,0.152338,0.227309,0.245779,0.193818,0.091271,-0.031312,0.257782,-0.153366,0.488088,0.032454,2.907257,1.000000,0.160000,True
0.840000,EP-002,approach,0.152477,0.228155,0.243509,0.190494,0.093806,-0.029558,0.257700,-0.153353,0.488212,0.016850,2.627192,1.000000,0.160000,True
0.860000,EP-002,approach,0.152748,0.226866,0.244639,0.193099,0.090434,-0.036486,0.258062,-0.153214,0.488238,0.045698,2.716203,1.000000,0.160000,True
0.880000,EP-002,approach,0.155368,0.229157,0.244225,0.192747,0.089361,-0.032591,0.258127,-0.153211,0.488525,0.003140,2.890268,1.000000,0.160000,True
0.900000,EP-002,approach,0.153384,0.231014,0.242186,0.190670,0.087057,-0.038504,0.258180,-0.152891,0.488664,0.026306,3.359204,1.000000,0.160000,True
0.920000,EP-002,approach,0.157300,0.230000,0.242365,0.189112,0.087401,-0.039116,0.258031,-0.152910,0.488662,0.036331,2.826885,1.000000,0.160000,True
0.940000,EP-002,approach,0.154395,0.231686,0.242324,0.187319,0.086019,-0.042363,0.258113,-0.152994,0.488825,0.028401,2.864014,1.000000,0.160000,True
0.960000,EP-002,approach,0.156677,0.231400,0.245792,0.187882,0.085214,-0.041221,0.258065,-0.152872,0.488803,0.014764,3.235192,1.000000,0.160000,True
0.980000,EP-002,approach,0.158120,0.230569,0.242383,0.184458,0.080759,-0.044268,0.257753,-0.152584,0.489103,0.015598,2.850749,1.000000,0.160000,True
1.000000,EP-002,approach,0.155892,0.233924,0.242831,0.186691,0.079077,-0.047248,0.257651,-0.152835,0.488972,0.009903,3.333248,1.000000,0.160000,True
1.020000,EP-002,approach,0.160016,0.232091,0.242456,0.182183,0.078875,-0.048243,0.257454,-0.152853,0.489311,0.020042,3.344317,1.000000,0.160000,True
1.040000,EP-002,approach,0.161597,0.234040,0.239871,0.180642,0.075695,-0.052864,0.257275,-0.152507,0.489615,0.014387,3.000050,1.000000,0.160000,True
1.060000,EP-002,approach,0.159154,0.233524,0.241203,0.181393,0.075429,-0.051499,0.257125,-0.152941,0.489544,0.018095,3.178773,1.000000,0.160000,True
1.080000,EP-002,approach,0.161164,0.233144,0.237650,0.181176,0.071787,-0.053341,0.256521,-0.152895,0.490015,0.007540,2.569150,1.000000,0.160000,True
1.100000,EP-002,approach,0.163337,0.235949,0.237592,0.178701,0.070722,-0.051036,0.256492,-0.152630,0.489709,0.010469,3.251430,1.000000,0.160000,True
1.120000,EP-002,approach,0.163997,0.233250,0.239988,0.178313,0.070456,-0.056638,0.256358,-0.152875,0.489936,0.006266,2.484902,1.000000,0.160000,True
1.140000,EP-002,approach,0.165061,0.233167,0.238227,0.177941,0.068707,-0.057345,0.255696,-0.153202,0.490093,0.025201,3.257341,1.000000,0.160000,True
1.160000,EP-002,approach,0.162003,0.236144,0.238901,0.175293,0.064729,-0.059339,0.255507,-0.153089,0.490333,0.014695,2.986548,1.000000,0.160000,True
1.180000,EP-002,approach,0.164694,0.235084,0.239003,0.176612,0.063176,-0.059856,0.255658,-0.153343,0.490498,0.020541,2.909569,1.000000,0.160000,True
1.200000,EP-002,reach,0.167430,0.233723,0.240785,0.173866,0.065128,-0.060325,0.254945,-0.153155,0.490514,0.022408,3.799463,1.000000,0.160000,True
1.220000,EP-002,reach,0.164224,0.234488,0.236989,0.173816,0.062089,-0.064679,0.254706,-0.153066,0.490456,0.023591,3.241531,1.000000,0.160000,True
1.240000,EP-002,reach,0.165203,0.233402,0.236829,0.170896,0.061368,-0.064850,0.254493,-0.153419,0.490927,0.038185,3.560006,1.000000,0.160000,True
1.260000,EP-002,reach,0.167512,0.236238,0.232813,0.168111,0.059160,-0.066230,0.254017,-0.153006,0.490974,0.020352,2.883652,1.000000,0.160000,True
1.280000,EP-002,reach,0.168194,0.237256,0.237839,0.170358,0.054244,-0.066435,0.253604,-0.153112,0.491126,0.017131,2.724413,1.000000,0.160000,True
1.300000,EP-002,reach,0.166898,0.236570,0.235238,0.169702,0.056188,-0.069531,0.253294,-0.153248,0.490989,0.038637,3.224779,1.000000,0.160000,True
1.320000,EP-002,reach,0.168173,0.237052,0.233878,0.166097,0.059577,-0.070014,0.252941,-0.153547,0.491360,0.015251,2.933594,1.000000,0.160000,True
1.340000,EP-002,reach,0.170061,0.238062,0.235705,0.165886,0.052809,-0.072710,0.252550,-0.153504,0.491423,0.017379,3.293747,1.000000,0.160000,True
1.360000,EP-002,reach,0.171050,0.236622,0.233825,0.162901,0.049787,-0.073832,0.252293,-0.153496,0.491688,0.034838,2.997750,1.000000,0.160000,True
